( Made using CamBam - http://www.cambam.co.uk )
( atmega_midi_clock_panel 2/15/2016 5:15:47 PM )
( T3 : 3.175 )
G21 G90 G64 G40
G0 Z3.0
( T3 : 3.175 )
T3 M6
( holes )
G17
M3 S1000
G0 X73.3077 Y124.828
G0 Z3.0
G0 X73.3202 Y124.828
G1 F1000.0 Z0.0
G2 F2000.0 X73.3014 Y124.8172 Z-0.0333 I-0.0125 J0.0
G2 Y124.8388 Z-0.0667 I0.0062 J0.0108
G2 X73.3202 Y124.828 Z-0.1 I0.0062 J-0.0108
G2 X73.3014 Y124.8172 Z-0.1333 I-0.0125 J0.0
G2 Y124.8388 Z-0.1667 I0.0062 J0.0108
G2 X73.3202 Y124.828 Z-0.2 I0.0062 J-0.0108
G2 X73.3014 Y124.8172 Z-0.2333 I-0.0125 J0.0
G2 Y124.8388 Z-0.2667 I0.0062 J0.0108
G2 X73.3202 Y124.828 Z-0.3 I0.0062 J-0.0108
G2 X73.3014 Y124.8172 Z-0.3333 I-0.0125 J0.0
G2 Y124.8388 Z-0.3667 I0.0062 J0.0108
G2 X73.3202 Y124.828 Z-0.4 I0.0062 J-0.0108
G2 X73.3014 Y124.8172 Z-0.4333 I-0.0125 J0.0
G2 Y124.8388 Z-0.4667 I0.0062 J0.0108
G2 X73.3202 Y124.828 Z-0.5 I0.0062 J-0.0108
G2 X73.3014 Y124.8172 Z-0.5333 I-0.0125 J0.0
G2 Y124.8388 Z-0.5667 I0.0062 J0.0108
G2 X73.3202 Y124.828 Z-0.6 I0.0062 J-0.0108
G2 X73.3014 Y124.8172 Z-0.6333 I-0.0125 J0.0
G2 Y124.8388 Z-0.6667 I0.0062 J0.0108
G2 X73.3202 Y124.828 Z-0.7 I0.0062 J-0.0108
G2 X73.3014 Y124.8172 Z-0.7333 I-0.0125 J0.0
G2 Y124.8388 Z-0.7667 I0.0062 J0.0108
G2 X73.3202 Y124.828 Z-0.8 I0.0062 J-0.0108
G2 X73.3014 Y124.8172 Z-0.8333 I-0.0125 J0.0
G2 Y124.8388 Z-0.8667 I0.0062 J0.0108
G2 X73.3202 Y124.828 Z-0.9 I0.0062 J-0.0108
G2 X73.3014 Y124.8172 Z-0.9333 I-0.0125 J0.0
G2 Y124.8388 Z-0.9667 I0.0062 J0.0108
G2 X73.3202 Y124.828 Z-1.0 I0.0062 J-0.0108
G2 X73.3014 Y124.8172 Z-1.0333 I-0.0125 J0.0
G2 Y124.8388 Z-1.0667 I0.0062 J0.0108
G2 X73.3202 Y124.828 Z-1.1 I0.0062 J-0.0108
G2 X73.3014 Y124.8172 Z-1.1333 I-0.0125 J0.0
G2 Y124.8388 Z-1.1667 I0.0062 J0.0108
G2 X73.3202 Y124.828 Z-1.2 I0.0062 J-0.0108
G2 X73.3014 Y124.8172 Z-1.2333 I-0.0125 J0.0
G2 Y124.8388 Z-1.2667 I0.0062 J0.0108
G2 X73.3202 Y124.828 Z-1.3 I0.0062 J-0.0108
G2 X73.3014 Y124.8172 Z-1.3333 I-0.0125 J0.0
G2 Y124.8388 Z-1.3667 I0.0062 J0.0108
G2 X73.3202 Y124.828 Z-1.4 I0.0062 J-0.0108
G2 X73.3014 Y124.8172 Z-1.4333 I-0.0125 J0.0
G2 Y124.8388 Z-1.4667 I0.0062 J0.0108
G2 X73.3202 Y124.828 Z-1.5 I0.0062 J-0.0108
G2 X73.3014 Y124.8172 Z-1.5333 I-0.0125 J0.0
G2 Y124.8388 Z-1.5667 I0.0062 J0.0108
G2 X73.3202 Y124.828 Z-1.6 I0.0062 J-0.0108
G2 X73.3014 Y124.8172 Z-1.6333 I-0.0125 J0.0
G2 Y124.8388 Z-1.6667 I0.0062 J0.0108
G2 X73.3202 Y124.828 Z-1.7 I0.0062 J-0.0108
G2 X73.3014 Y124.8172 Z-1.7333 I-0.0125 J0.0
G2 Y124.8388 Z-1.7667 I0.0062 J0.0108
G2 X73.3202 Y124.828 Z-1.8 I0.0062 J-0.0108
G2 X73.3014 Y124.8172 Z-1.8333 I-0.0125 J0.0
G2 Y124.8388 Z-1.8667 I0.0062 J0.0108
G2 X73.3202 Y124.828 Z-1.9 I0.0062 J-0.0108
G2 X73.3014 Y124.8172 Z-1.9333 I-0.0125 J0.0
G2 Y124.8388 Z-1.9667 I0.0062 J0.0108
G2 X73.3202 Y124.828 Z-2.0 I0.0062 J-0.0108
G2 X73.3014 Y124.8172 Z-2.0333 I-0.0125 J0.0
G2 Y124.8388 Z-2.0667 I0.0062 J0.0108
G2 X73.3202 Y124.828 Z-2.1 I0.0062 J-0.0108
G2 X73.3014 Y124.8172 Z-2.1333 I-0.0125 J0.0
G2 Y124.8388 Z-2.1667 I0.0062 J0.0108
G2 X73.3202 Y124.828 Z-2.2 I0.0062 J-0.0108
G2 X73.3014 Y124.8172 Z-2.2333 I-0.0125 J0.0
G2 Y124.8388 Z-2.2667 I0.0062 J0.0108
G2 X73.3202 Y124.828 Z-2.3 I0.0062 J-0.0108
G2 X73.3014 Y124.8172 Z-2.3333 I-0.0125 J0.0
G2 Y124.8388 Z-2.3667 I0.0062 J0.0108
G2 X73.3202 Y124.828 Z-2.4 I0.0062 J-0.0108
G2 X73.3014 Y124.8172 Z-2.4333 I-0.0125 J0.0
G2 Y124.8388 Z-2.4667 I0.0062 J0.0108
G2 X73.3202 Y124.828 Z-2.5 I0.0062 J-0.0108
G2 X73.3014 Y124.8172 Z-2.5333 I-0.0125 J0.0
G2 Y124.8388 Z-2.5667 I0.0062 J0.0108
G2 X73.3202 Y124.828 Z-2.6 I0.0062 J-0.0108
G2 X73.3014 Y124.8172 Z-2.6333 I-0.0125 J0.0
G2 Y124.8388 Z-2.6667 I0.0062 J0.0108
G2 X73.3202 Y124.828 Z-2.7 I0.0062 J-0.0108
G2 X73.3014 Y124.8172 Z-2.7333 I-0.0125 J0.0
G2 Y124.8388 Z-2.7667 I0.0063 J0.0108
G2 X73.3202 Y124.828 Z-2.8 I0.0062 J-0.0108
G2 X73.3014 Y124.8172 Z-2.8333 I-0.0125 J0.0
G2 Y124.8388 Z-2.8667 I0.0063 J0.0108
G2 X73.3202 Y124.828 Z-2.9 I0.0062 J-0.0108
G2 X73.3014 Y124.8172 Z-2.9333 I-0.0125 J0.0
G2 Y124.8388 Z-2.9667 I0.0063 J0.0108
G2 X73.3202 Y124.828 Z-3.0 I0.0062 J-0.0108
G2 X73.3014 Y124.8172 Z-3.0333 I-0.0125 J0.0
G2 Y124.8388 Z-3.0667 I0.0063 J0.0108
G2 X73.3202 Y124.828 Z-3.1 I0.0062 J-0.0108
G2 X73.3014 Y124.8172 Z-3.1333 I-0.0125 J0.0
G2 Y124.8388 Z-3.1667 I0.0063 J0.0108
G2 X73.3202 Y124.828 Z-3.2 I0.0062 J-0.0108
G2 X73.3014 Y124.8172 I-0.0125 J0.0
G2 Y124.8388 I0.0063 J0.0108
G2 X73.3202 Y124.828 I0.0062 J-0.0108
G0 Z3.0
G0 X56.5195 Y110.3476
G1 F1000.0 Z0.0
G2 F2000.0 X56.5008 Y110.3367 Z-0.0333 I-0.0125 J0.0
G2 Y110.3584 Z-0.0667 I0.0062 J0.0108
G2 X56.5195 Y110.3476 Z-0.1 I0.0063 J-0.0108
G2 X56.5008 Y110.3367 Z-0.1333 I-0.0125 J0.0
G2 Y110.3584 Z-0.1667 I0.0062 J0.0108
G2 X56.5195 Y110.3476 Z-0.2 I0.0063 J-0.0108
G2 X56.5008 Y110.3367 Z-0.2333 I-0.0125 J0.0
G2 Y110.3584 Z-0.2667 I0.0062 J0.0108
G2 X56.5195 Y110.3476 Z-0.3 I0.0063 J-0.0108
G2 X56.5008 Y110.3367 Z-0.3333 I-0.0125 J0.0
G2 Y110.3584 Z-0.3667 I0.0062 J0.0108
G2 X56.5195 Y110.3476 Z-0.4 I0.0063 J-0.0108
G2 X56.5008 Y110.3367 Z-0.4333 I-0.0125 J0.0
G2 Y110.3584 Z-0.4667 I0.0062 J0.0108
G2 X56.5195 Y110.3476 Z-0.5 I0.0063 J-0.0108
G2 X56.5008 Y110.3367 Z-0.5333 I-0.0125 J0.0
G2 Y110.3584 Z-0.5667 I0.0062 J0.0108
G2 X56.5195 Y110.3476 Z-0.6 I0.0063 J-0.0108
G2 X56.5008 Y110.3367 Z-0.6333 I-0.0125 J0.0
G2 Y110.3584 Z-0.6667 I0.0062 J0.0108
G2 X56.5195 Y110.3476 Z-0.7 I0.0063 J-0.0108
G2 X56.5008 Y110.3367 Z-0.7333 I-0.0125 J0.0
G2 Y110.3584 Z-0.7667 I0.0062 J0.0108
G2 X56.5195 Y110.3476 Z-0.8 I0.0063 J-0.0108
G2 X56.5008 Y110.3367 Z-0.8333 I-0.0125 J0.0
G2 Y110.3584 Z-0.8667 I0.0062 J0.0108
G2 X56.5195 Y110.3476 Z-0.9 I0.0063 J-0.0108
G2 X56.5008 Y110.3367 Z-0.9333 I-0.0125 J0.0
G2 Y110.3584 Z-0.9667 I0.0062 J0.0108
G2 X56.5195 Y110.3476 Z-1.0 I0.0063 J-0.0108
G2 X56.5008 Y110.3367 Z-1.0333 I-0.0125 J0.0
G2 Y110.3584 Z-1.0667 I0.0062 J0.0108
G2 X56.5195 Y110.3476 Z-1.1 I0.0063 J-0.0108
G2 X56.5008 Y110.3367 Z-1.1333 I-0.0125 J0.0
G2 Y110.3584 Z-1.1667 I0.0062 J0.0108
G2 X56.5195 Y110.3476 Z-1.2 I0.0063 J-0.0108
G2 X56.5008 Y110.3367 Z-1.2333 I-0.0125 J0.0
G2 Y110.3584 Z-1.2667 I0.0062 J0.0108
G2 X56.5195 Y110.3476 Z-1.3 I0.0063 J-0.0108
G2 X56.5008 Y110.3367 Z-1.3333 I-0.0125 J0.0
G2 Y110.3584 Z-1.3667 I0.0062 J0.0108
G2 X56.5195 Y110.3476 Z-1.4 I0.0063 J-0.0108
G2 X56.5008 Y110.3367 Z-1.4333 I-0.0125 J0.0
G2 Y110.3584 Z-1.4667 I0.0062 J0.0108
G2 X56.5195 Y110.3476 Z-1.5 I0.0063 J-0.0108
G2 X56.5008 Y110.3367 Z-1.5333 I-0.0125 J0.0
G2 Y110.3584 Z-1.5667 I0.0062 J0.0108
G2 X56.5195 Y110.3476 Z-1.6 I0.0063 J-0.0108
G2 X56.5008 Y110.3367 Z-1.6333 I-0.0125 J0.0
G2 Y110.3584 Z-1.6667 I0.0062 J0.0108
G2 X56.5195 Y110.3476 Z-1.7 I0.0063 J-0.0108
G2 X56.5008 Y110.3367 Z-1.7333 I-0.0125 J0.0
G2 Y110.3584 Z-1.7667 I0.0062 J0.0108
G2 X56.5195 Y110.3476 Z-1.8 I0.0063 J-0.0108
G2 X56.5008 Y110.3367 Z-1.8333 I-0.0125 J0.0
G2 Y110.3584 Z-1.8667 I0.0062 J0.0108
G2 X56.5195 Y110.3476 Z-1.9 I0.0063 J-0.0108
G2 X56.5008 Y110.3367 Z-1.9333 I-0.0125 J0.0
G2 Y110.3584 Z-1.9667 I0.0062 J0.0108
G2 X56.5195 Y110.3476 Z-2.0 I0.0063 J-0.0108
G2 X56.5008 Y110.3367 Z-2.0333 I-0.0125 J0.0
G2 Y110.3584 Z-2.0667 I0.0062 J0.0108
G2 X56.5195 Y110.3476 Z-2.1 I0.0063 J-0.0108
G2 X56.5008 Y110.3367 Z-2.1333 I-0.0125 J0.0
G2 Y110.3584 Z-2.1667 I0.0062 J0.0108
G2 X56.5195 Y110.3476 Z-2.2 I0.0063 J-0.0108
G2 X56.5008 Y110.3367 Z-2.2333 I-0.0125 J0.0
G2 Y110.3584 Z-2.2667 I0.0062 J0.0108
G2 X56.5195 Y110.3476 Z-2.3 I0.0063 J-0.0108
G2 X56.5008 Y110.3367 Z-2.3333 I-0.0125 J0.0
G2 Y110.3584 Z-2.3667 I0.0062 J0.0108
G2 X56.5195 Y110.3476 Z-2.4 I0.0063 J-0.0108
G2 X56.5008 Y110.3367 Z-2.4333 I-0.0125 J0.0
G2 Y110.3584 Z-2.4667 I0.0062 J0.0108
G2 X56.5195 Y110.3476 Z-2.5 I0.0063 J-0.0108
G2 X56.5008 Y110.3367 Z-2.5333 I-0.0125 J0.0
G2 Y110.3584 Z-2.5667 I0.0062 J0.0108
G2 X56.5195 Y110.3476 Z-2.6 I0.0063 J-0.0108
G2 X56.5008 Y110.3367 Z-2.6333 I-0.0125 J0.0
G2 Y110.3584 Z-2.6667 I0.0062 J0.0108
G2 X56.5195 Y110.3476 Z-2.7 I0.0063 J-0.0108
G2 X56.5008 Y110.3367 Z-2.7333 I-0.0125 J0.0
G2 Y110.3584 Z-2.7667 I0.0062 J0.0108
G2 X56.5195 Y110.3476 Z-2.8 I0.0063 J-0.0108
G2 X56.5008 Y110.3367 Z-2.8333 I-0.0125 J0.0
G2 Y110.3584 Z-2.8667 I0.0062 J0.0108
G2 X56.5195 Y110.3476 Z-2.9 I0.0063 J-0.0108
G2 X56.5008 Y110.3367 Z-2.9333 I-0.0125 J0.0
G2 Y110.3584 Z-2.9667 I0.0063 J0.0108
G2 X56.5195 Y110.3476 Z-3.0 I0.0063 J-0.0108
G2 X56.5008 Y110.3367 Z-3.0333 I-0.0125 J0.0
G2 Y110.3584 Z-3.0667 I0.0063 J0.0108
G2 X56.5195 Y110.3476 Z-3.1 I0.0063 J-0.0108
G2 X56.5008 Y110.3367 Z-3.1333 I-0.0125 J0.0
G2 Y110.3584 Z-3.1667 I0.0063 J0.0108
G2 X56.5195 Y110.3476 Z-3.2 I0.0063 J-0.0108
G2 X56.5008 Y110.3367 I-0.0125 J0.0
G2 Y110.3584 I0.0063 J0.0108
G2 X56.5195 Y110.3476 I0.0062 J-0.0108
G0 Z3.0
G0 X65.5488 Y104.0019
G1 F1000.0 Z0.0
G2 F2000.0 X65.5301 Y103.9911 Z-0.0333 I-0.0125 J0.0
G2 Y104.0127 Z-0.0667 I0.0062 J0.0108
G2 X65.5488 Y104.0019 Z-0.1 I0.0062 J-0.0108
G2 X65.5301 Y103.9911 Z-0.1333 I-0.0125 J0.0
G2 Y104.0127 Z-0.1667 I0.0062 J0.0108
G2 X65.5488 Y104.0019 Z-0.2 I0.0062 J-0.0108
G2 X65.5301 Y103.9911 Z-0.2333 I-0.0125 J0.0
G2 Y104.0127 Z-0.2667 I0.0062 J0.0108
G2 X65.5488 Y104.0019 Z-0.3 I0.0062 J-0.0108
G2 X65.5301 Y103.9911 Z-0.3333 I-0.0125 J0.0
G2 Y104.0127 Z-0.3667 I0.0062 J0.0108
G2 X65.5488 Y104.0019 Z-0.4 I0.0062 J-0.0108
G2 X65.5301 Y103.9911 Z-0.4333 I-0.0125 J0.0
G2 Y104.0127 Z-0.4667 I0.0062 J0.0108
G2 X65.5488 Y104.0019 Z-0.5 I0.0062 J-0.0108
G2 X65.5301 Y103.9911 Z-0.5333 I-0.0125 J0.0
G2 Y104.0127 Z-0.5667 I0.0062 J0.0108
G2 X65.5488 Y104.0019 Z-0.6 I0.0062 J-0.0108
G2 X65.5301 Y103.9911 Z-0.6333 I-0.0125 J0.0
G2 Y104.0127 Z-0.6667 I0.0062 J0.0108
G2 X65.5488 Y104.0019 Z-0.7 I0.0062 J-0.0108
G2 X65.5301 Y103.9911 Z-0.7333 I-0.0125 J0.0
G2 Y104.0127 Z-0.7667 I0.0062 J0.0108
G2 X65.5488 Y104.0019 Z-0.8 I0.0062 J-0.0108
G2 X65.5301 Y103.9911 Z-0.8333 I-0.0125 J0.0
G2 Y104.0127 Z-0.8667 I0.0062 J0.0108
G2 X65.5488 Y104.0019 Z-0.9 I0.0062 J-0.0108
G2 X65.5301 Y103.9911 Z-0.9333 I-0.0125 J0.0
G2 Y104.0127 Z-0.9667 I0.0062 J0.0108
G2 X65.5488 Y104.0019 Z-1.0 I0.0062 J-0.0108
G2 X65.5301 Y103.9911 Z-1.0333 I-0.0125 J0.0
G2 Y104.0127 Z-1.0667 I0.0062 J0.0108
G2 X65.5488 Y104.0019 Z-1.1 I0.0062 J-0.0108
G2 X65.5301 Y103.9911 Z-1.1333 I-0.0125 J0.0
G2 Y104.0127 Z-1.1667 I0.0062 J0.0108
G2 X65.5488 Y104.0019 Z-1.2 I0.0062 J-0.0108
G2 X65.5301 Y103.9911 Z-1.2333 I-0.0125 J0.0
G2 Y104.0127 Z-1.2667 I0.0062 J0.0108
G2 X65.5488 Y104.0019 Z-1.3 I0.0062 J-0.0108
G2 X65.5301 Y103.9911 Z-1.3333 I-0.0125 J0.0
G2 Y104.0127 Z-1.3667 I0.0062 J0.0108
G2 X65.5488 Y104.0019 Z-1.4 I0.0062 J-0.0108
G2 X65.5301 Y103.9911 Z-1.4333 I-0.0125 J0.0
G2 Y104.0127 Z-1.4667 I0.0062 J0.0108
G2 X65.5488 Y104.0019 Z-1.5 I0.0062 J-0.0108
G2 X65.5301 Y103.9911 Z-1.5333 I-0.0125 J0.0
G2 Y104.0127 Z-1.5667 I0.0062 J0.0108
G2 X65.5488 Y104.0019 Z-1.6 I0.0062 J-0.0108
G2 X65.5301 Y103.9911 Z-1.6333 I-0.0125 J0.0
G2 Y104.0127 Z-1.6667 I0.0062 J0.0108
G2 X65.5488 Y104.0019 Z-1.7 I0.0062 J-0.0108
G2 X65.5301 Y103.9911 Z-1.7333 I-0.0125 J0.0
G2 Y104.0127 Z-1.7667 I0.0062 J0.0108
G2 X65.5488 Y104.0019 Z-1.8 I0.0062 J-0.0108
G2 X65.5301 Y103.9911 Z-1.8333 I-0.0125 J0.0
G2 Y104.0127 Z-1.8667 I0.0062 J0.0108
G2 X65.5488 Y104.0019 Z-1.9 I0.0062 J-0.0108
G2 X65.5301 Y103.9911 Z-1.9333 I-0.0125 J0.0
G2 Y104.0127 Z-1.9667 I0.0062 J0.0108
G2 X65.5488 Y104.0019 Z-2.0 I0.0062 J-0.0108
G2 X65.5301 Y103.9911 Z-2.0333 I-0.0125 J0.0
G2 Y104.0127 Z-2.0667 I0.0062 J0.0108
G2 X65.5488 Y104.0019 Z-2.1 I0.0062 J-0.0108
G2 X65.5301 Y103.9911 Z-2.1333 I-0.0125 J0.0
G2 Y104.0127 Z-2.1667 I0.0062 J0.0108
G2 X65.5488 Y104.0019 Z-2.2 I0.0062 J-0.0108
G2 X65.5301 Y103.9911 Z-2.2333 I-0.0125 J0.0
G2 Y104.0127 Z-2.2667 I0.0062 J0.0108
G2 X65.5488 Y104.0019 Z-2.3 I0.0062 J-0.0108
G2 X65.5301 Y103.9911 Z-2.3333 I-0.0125 J0.0
G2 Y104.0127 Z-2.3667 I0.0062 J0.0108
G2 X65.5488 Y104.0019 Z-2.4 I0.0062 J-0.0108
G2 X65.5301 Y103.9911 Z-2.4333 I-0.0125 J0.0
G2 Y104.0127 Z-2.4667 I0.0062 J0.0108
G2 X65.5488 Y104.0019 Z-2.5 I0.0062 J-0.0108
G2 X65.5301 Y103.9911 Z-2.5333 I-0.0125 J0.0
G2 Y104.0127 Z-2.5667 I0.0062 J0.0108
G2 X65.5488 Y104.0019 Z-2.6 I0.0062 J-0.0108
G2 X65.5301 Y103.9911 Z-2.6333 I-0.0125 J0.0
G2 Y104.0127 Z-2.6667 I0.0062 J0.0108
G2 X65.5488 Y104.0019 Z-2.7 I0.0062 J-0.0108
G2 X65.5301 Y103.9911 Z-2.7333 I-0.0125 J0.0
G2 Y104.0127 Z-2.7667 I0.0063 J0.0108
G2 X65.5488 Y104.0019 Z-2.8 I0.0062 J-0.0108
G2 X65.5301 Y103.9911 Z-2.8333 I-0.0125 J0.0
G2 Y104.0127 Z-2.8667 I0.0063 J0.0108
G2 X65.5488 Y104.0019 Z-2.9 I0.0062 J-0.0108
G2 X65.5301 Y103.9911 Z-2.9333 I-0.0125 J0.0
G2 Y104.0127 Z-2.9667 I0.0063 J0.0108
G2 X65.5488 Y104.0019 Z-3.0 I0.0062 J-0.0108
G2 X65.5301 Y103.9911 Z-3.0333 I-0.0125 J0.0
G2 Y104.0127 Z-3.0667 I0.0063 J0.0108
G2 X65.5488 Y104.0019 Z-3.1 I0.0062 J-0.0108
G2 X65.5301 Y103.9911 Z-3.1333 I-0.0125 J0.0
G2 Y104.0127 Z-3.1667 I0.0063 J0.0108
G2 X65.5488 Y104.0019 Z-3.2 I0.0062 J-0.0108
G2 X65.5301 Y103.9911 I-0.0125 J0.0
G2 Y104.0127 I0.0063 J0.0108
G2 X65.5488 Y104.0019 I0.0062 J-0.0108
G0 Z3.0
G0 X74.7576 Y97.564
G1 F1000.0 Z0.0
G2 F2000.0 X74.7388 Y97.5532 Z-0.0333 I-0.0125 J0.0
G2 Y97.5748 Z-0.0667 I0.0062 J0.0108
G2 X74.7576 Y97.564 Z-0.1 I0.0062 J-0.0108
G2 X74.7388 Y97.5532 Z-0.1333 I-0.0125 J0.0
G2 Y97.5748 Z-0.1667 I0.0062 J0.0108
G2 X74.7576 Y97.564 Z-0.2 I0.0062 J-0.0108
G2 X74.7388 Y97.5532 Z-0.2333 I-0.0125 J0.0
G2 Y97.5748 Z-0.2667 I0.0062 J0.0108
G2 X74.7576 Y97.564 Z-0.3 I0.0062 J-0.0108
G2 X74.7388 Y97.5532 Z-0.3333 I-0.0125 J0.0
G2 Y97.5748 Z-0.3667 I0.0062 J0.0108
G2 X74.7576 Y97.564 Z-0.4 I0.0062 J-0.0108
G2 X74.7388 Y97.5532 Z-0.4333 I-0.0125 J0.0
G2 Y97.5748 Z-0.4667 I0.0062 J0.0108
G2 X74.7576 Y97.564 Z-0.5 I0.0062 J-0.0108
G2 X74.7388 Y97.5532 Z-0.5333 I-0.0125 J0.0
G2 Y97.5748 Z-0.5667 I0.0062 J0.0108
G2 X74.7576 Y97.564 Z-0.6 I0.0062 J-0.0108
G2 X74.7388 Y97.5532 Z-0.6333 I-0.0125 J0.0
G2 Y97.5748 Z-0.6667 I0.0062 J0.0108
G2 X74.7576 Y97.564 Z-0.7 I0.0062 J-0.0108
G2 X74.7388 Y97.5532 Z-0.7333 I-0.0125 J0.0
G2 Y97.5748 Z-0.7667 I0.0062 J0.0108
G2 X74.7576 Y97.564 Z-0.8 I0.0062 J-0.0108
G2 X74.7388 Y97.5532 Z-0.8333 I-0.0125 J0.0
G2 Y97.5748 Z-0.8667 I0.0062 J0.0108
G2 X74.7576 Y97.564 Z-0.9 I0.0062 J-0.0108
G2 X74.7388 Y97.5532 Z-0.9333 I-0.0125 J0.0
G2 Y97.5748 Z-0.9667 I0.0062 J0.0108
G2 X74.7576 Y97.564 Z-1.0 I0.0062 J-0.0108
G2 X74.7388 Y97.5532 Z-1.0333 I-0.0125 J0.0
G2 Y97.5748 Z-1.0667 I0.0062 J0.0108
G2 X74.7576 Y97.564 Z-1.1 I0.0062 J-0.0108
G2 X74.7388 Y97.5532 Z-1.1333 I-0.0125 J0.0
G2 Y97.5748 Z-1.1667 I0.0062 J0.0108
G2 X74.7576 Y97.564 Z-1.2 I0.0062 J-0.0108
G2 X74.7388 Y97.5532 Z-1.2333 I-0.0125 J0.0
G2 Y97.5748 Z-1.2667 I0.0062 J0.0108
G2 X74.7576 Y97.564 Z-1.3 I0.0062 J-0.0108
G2 X74.7388 Y97.5532 Z-1.3333 I-0.0125 J0.0
G2 Y97.5748 Z-1.3667 I0.0062 J0.0108
G2 X74.7576 Y97.564 Z-1.4 I0.0062 J-0.0108
G2 X74.7388 Y97.5532 Z-1.4333 I-0.0125 J0.0
G2 Y97.5748 Z-1.4667 I0.0062 J0.0108
G2 X74.7576 Y97.564 Z-1.5 I0.0062 J-0.0108
G2 X74.7388 Y97.5532 Z-1.5333 I-0.0125 J0.0
G2 Y97.5748 Z-1.5667 I0.0062 J0.0108
G2 X74.7576 Y97.564 Z-1.6 I0.0062 J-0.0108
G2 X74.7388 Y97.5532 Z-1.6333 I-0.0125 J0.0
G2 Y97.5748 Z-1.6667 I0.0062 J0.0108
G2 X74.7576 Y97.564 Z-1.7 I0.0062 J-0.0108
G2 X74.7388 Y97.5532 Z-1.7333 I-0.0125 J0.0
G2 Y97.5748 Z-1.7667 I0.0062 J0.0108
G2 X74.7576 Y97.564 Z-1.8 I0.0062 J-0.0108
G2 X74.7388 Y97.5532 Z-1.8333 I-0.0125 J0.0
G2 Y97.5748 Z-1.8667 I0.0062 J0.0108
G2 X74.7576 Y97.564 Z-1.9 I0.0062 J-0.0108
G2 X74.7388 Y97.5532 Z-1.9333 I-0.0125 J0.0
G2 Y97.5748 Z-1.9667 I0.0062 J0.0108
G2 X74.7576 Y97.564 Z-2.0 I0.0062 J-0.0108
G2 X74.7388 Y97.5532 Z-2.0333 I-0.0125 J0.0
G2 Y97.5748 Z-2.0667 I0.0062 J0.0108
G2 X74.7576 Y97.564 Z-2.1 I0.0062 J-0.0108
G2 X74.7388 Y97.5532 Z-2.1333 I-0.0125 J0.0
G2 Y97.5748 Z-2.1667 I0.0062 J0.0108
G2 X74.7576 Y97.564 Z-2.2 I0.0062 J-0.0108
G2 X74.7388 Y97.5532 Z-2.2333 I-0.0125 J0.0
G2 Y97.5748 Z-2.2667 I0.0062 J0.0108
G2 X74.7576 Y97.564 Z-2.3 I0.0062 J-0.0108
G2 X74.7388 Y97.5532 Z-2.3333 I-0.0125 J0.0
G2 Y97.5748 Z-2.3667 I0.0062 J0.0108
G2 X74.7576 Y97.564 Z-2.4 I0.0062 J-0.0108
G2 X74.7388 Y97.5532 Z-2.4333 I-0.0125 J0.0
G2 Y97.5748 Z-2.4667 I0.0062 J0.0108
G2 X74.7576 Y97.564 Z-2.5 I0.0062 J-0.0108
G2 X74.7388 Y97.5532 Z-2.5333 I-0.0125 J0.0
G2 Y97.5748 Z-2.5667 I0.0062 J0.0108
G2 X74.7576 Y97.564 Z-2.6 I0.0062 J-0.0108
G2 X74.7388 Y97.5532 Z-2.6333 I-0.0125 J0.0
G2 Y97.5748 Z-2.6667 I0.0062 J0.0108
G2 X74.7576 Y97.564 Z-2.7 I0.0062 J-0.0108
G2 X74.7388 Y97.5532 Z-2.7333 I-0.0125 J0.0
G2 Y97.5748 Z-2.7667 I0.0063 J0.0108
G2 X74.7576 Y97.564 Z-2.8 I0.0062 J-0.0108
G2 X74.7388 Y97.5532 Z-2.8333 I-0.0125 J0.0
G2 Y97.5748 Z-2.8667 I0.0063 J0.0108
G2 X74.7576 Y97.564 Z-2.9 I0.0062 J-0.0108
G2 X74.7388 Y97.5532 Z-2.9333 I-0.0125 J0.0
G2 Y97.5748 Z-2.9667 I0.0063 J0.0108
G2 X74.7576 Y97.564 Z-3.0 I0.0062 J-0.0108
G2 X74.7388 Y97.5532 Z-3.0333 I-0.0125 J0.0
G2 Y97.5748 Z-3.0667 I0.0063 J0.0108
G2 X74.7576 Y97.564 Z-3.1 I0.0062 J-0.0108
G2 X74.7388 Y97.5532 Z-3.1333 I-0.0125 J0.0
G2 Y97.5748 Z-3.1667 I0.0063 J0.0108
G2 X74.7576 Y97.564 Z-3.2 I0.0062 J-0.0108
G2 X74.7388 Y97.5532 I-0.0125 J0.0
G2 Y97.5748 I0.0063 J0.0108
G2 X74.7576 Y97.564 I0.0062 J-0.0108
G0 Z3.0
G0 X65.5316 Y75.7906
G1 F1000.0 Z0.0
G2 F2000.0 X65.5129 Y75.7797 Z-0.0333 I-0.0125 J0.0
G2 Y75.8014 Z-0.0667 I0.0062 J0.0108
G2 X65.5316 Y75.7906 Z-0.1 I0.0062 J-0.0108
G2 X65.5129 Y75.7797 Z-0.1333 I-0.0125 J0.0
G2 Y75.8014 Z-0.1667 I0.0062 J0.0108
G2 X65.5316 Y75.7906 Z-0.2 I0.0062 J-0.0108
G2 X65.5129 Y75.7797 Z-0.2333 I-0.0125 J0.0
G2 Y75.8014 Z-0.2667 I0.0062 J0.0108
G2 X65.5316 Y75.7906 Z-0.3 I0.0062 J-0.0108
G2 X65.5129 Y75.7797 Z-0.3333 I-0.0125 J0.0
G2 Y75.8014 Z-0.3667 I0.0062 J0.0108
G2 X65.5316 Y75.7906 Z-0.4 I0.0062 J-0.0108
G2 X65.5129 Y75.7797 Z-0.4333 I-0.0125 J0.0
G2 Y75.8014 Z-0.4667 I0.0062 J0.0108
G2 X65.5316 Y75.7906 Z-0.5 I0.0062 J-0.0108
G2 X65.5129 Y75.7797 Z-0.5333 I-0.0125 J0.0
G2 Y75.8014 Z-0.5667 I0.0062 J0.0108
G2 X65.5316 Y75.7906 Z-0.6 I0.0062 J-0.0108
G2 X65.5129 Y75.7797 Z-0.6333 I-0.0125 J0.0
G2 Y75.8014 Z-0.6667 I0.0062 J0.0108
G2 X65.5316 Y75.7906 Z-0.7 I0.0062 J-0.0108
G2 X65.5129 Y75.7797 Z-0.7333 I-0.0125 J0.0
G2 Y75.8014 Z-0.7667 I0.0062 J0.0108
G2 X65.5316 Y75.7906 Z-0.8 I0.0062 J-0.0108
G2 X65.5129 Y75.7797 Z-0.8333 I-0.0125 J0.0
G2 Y75.8014 Z-0.8667 I0.0062 J0.0108
G2 X65.5316 Y75.7906 Z-0.9 I0.0062 J-0.0108
G2 X65.5129 Y75.7797 Z-0.9333 I-0.0125 J0.0
G2 Y75.8014 Z-0.9667 I0.0062 J0.0108
G2 X65.5316 Y75.7906 Z-1.0 I0.0062 J-0.0108
G2 X65.5129 Y75.7797 Z-1.0333 I-0.0125 J0.0
G2 Y75.8014 Z-1.0667 I0.0062 J0.0108
G2 X65.5316 Y75.7906 Z-1.1 I0.0062 J-0.0108
G2 X65.5129 Y75.7797 Z-1.1333 I-0.0125 J0.0
G2 Y75.8014 Z-1.1667 I0.0062 J0.0108
G2 X65.5316 Y75.7906 Z-1.2 I0.0062 J-0.0108
G2 X65.5129 Y75.7797 Z-1.2333 I-0.0125 J0.0
G2 Y75.8014 Z-1.2667 I0.0062 J0.0108
G2 X65.5316 Y75.7906 Z-1.3 I0.0062 J-0.0108
G2 X65.5129 Y75.7797 Z-1.3333 I-0.0125 J0.0
G2 Y75.8014 Z-1.3667 I0.0062 J0.0108
G2 X65.5316 Y75.7906 Z-1.4 I0.0062 J-0.0108
G2 X65.5129 Y75.7797 Z-1.4333 I-0.0125 J0.0
G2 Y75.8014 Z-1.4667 I0.0062 J0.0108
G2 X65.5316 Y75.7906 Z-1.5 I0.0062 J-0.0108
G2 X65.5129 Y75.7797 Z-1.5333 I-0.0125 J0.0
G2 Y75.8014 Z-1.5667 I0.0062 J0.0108
G2 X65.5316 Y75.7906 Z-1.6 I0.0062 J-0.0108
G2 X65.5129 Y75.7797 Z-1.6333 I-0.0125 J0.0
G2 Y75.8014 Z-1.6667 I0.0062 J0.0108
G2 X65.5316 Y75.7906 Z-1.7 I0.0062 J-0.0108
G2 X65.5129 Y75.7797 Z-1.7333 I-0.0125 J0.0
G2 Y75.8014 Z-1.7667 I0.0062 J0.0108
G2 X65.5316 Y75.7906 Z-1.8 I0.0062 J-0.0108
G2 X65.5129 Y75.7797 Z-1.8333 I-0.0125 J0.0
G2 Y75.8014 Z-1.8667 I0.0062 J0.0108
G2 X65.5316 Y75.7906 Z-1.9 I0.0062 J-0.0108
G2 X65.5129 Y75.7797 Z-1.9333 I-0.0125 J0.0
G2 Y75.8014 Z-1.9667 I0.0062 J0.0108
G2 X65.5316 Y75.7906 Z-2.0 I0.0062 J-0.0108
G2 X65.5129 Y75.7797 Z-2.0333 I-0.0125 J0.0
G2 Y75.8014 Z-2.0667 I0.0062 J0.0108
G2 X65.5316 Y75.7906 Z-2.1 I0.0062 J-0.0108
G2 X65.5129 Y75.7797 Z-2.1333 I-0.0125 J0.0
G2 Y75.8014 Z-2.1667 I0.0062 J0.0108
G2 X65.5316 Y75.7906 Z-2.2 I0.0062 J-0.0108
G2 X65.5129 Y75.7797 Z-2.2333 I-0.0125 J0.0
G2 Y75.8014 Z-2.2667 I0.0062 J0.0108
G2 X65.5316 Y75.7906 Z-2.3 I0.0062 J-0.0108
G2 X65.5129 Y75.7797 Z-2.3333 I-0.0125 J0.0
G2 Y75.8014 Z-2.3667 I0.0062 J0.0108
G2 X65.5316 Y75.7906 Z-2.4 I0.0062 J-0.0108
G2 X65.5129 Y75.7797 Z-2.4333 I-0.0125 J0.0
G2 Y75.8014 Z-2.4667 I0.0062 J0.0108
G2 X65.5316 Y75.7906 Z-2.5 I0.0062 J-0.0108
G2 X65.5129 Y75.7797 Z-2.5333 I-0.0125 J0.0
G2 Y75.8014 Z-2.5667 I0.0062 J0.0108
G2 X65.5316 Y75.7906 Z-2.6 I0.0062 J-0.0108
G2 X65.5129 Y75.7797 Z-2.6333 I-0.0125 J0.0
G2 Y75.8014 Z-2.6667 I0.0062 J0.0108
G2 X65.5316 Y75.7906 Z-2.7 I0.0062 J-0.0108
G2 X65.5129 Y75.7797 Z-2.7333 I-0.0125 J0.0
G2 Y75.8014 Z-2.7667 I0.0063 J0.0108
G2 X65.5316 Y75.7906 Z-2.8 I0.0062 J-0.0108
G2 X65.5129 Y75.7797 Z-2.8333 I-0.0125 J0.0
G2 Y75.8014 Z-2.8667 I0.0063 J0.0108
G2 X65.5316 Y75.7906 Z-2.9 I0.0062 J-0.0108
G2 X65.5129 Y75.7797 Z-2.9333 I-0.0125 J0.0
G2 Y75.8014 Z-2.9667 I0.0063 J0.0108
G2 X65.5316 Y75.7906 Z-3.0 I0.0062 J-0.0108
G2 X65.5129 Y75.7797 Z-3.0333 I-0.0125 J0.0
G2 Y75.8014 Z-3.0667 I0.0063 J0.0108
G2 X65.5316 Y75.7906 Z-3.1 I0.0062 J-0.0108
G2 X65.5129 Y75.7797 Z-3.1333 I-0.0125 J0.0
G2 Y75.8014 Z-3.1667 I0.0063 J0.0108
G2 X65.5316 Y75.7906 Z-3.2 I0.0062 J-0.0108
G2 X65.5129 Y75.7797 I-0.0125 J0.0
G2 Y75.8014 I0.0063 J0.0108
G2 X65.5316 Y75.7906 I0.0062 J-0.0108
G0 Z3.0
G0 X56.4824 Y82.0935
G1 F1000.0 Z0.0
G2 F2000.0 X56.4636 Y82.0827 Z-0.0333 I-0.0125 J0.0
G2 Y82.1043 Z-0.0667 I0.0062 J0.0108
G2 X56.4824 Y82.0935 Z-0.1 I0.0063 J-0.0108
G2 X56.4636 Y82.0827 Z-0.1333 I-0.0125 J0.0
G2 Y82.1043 Z-0.1667 I0.0062 J0.0108
G2 X56.4824 Y82.0935 Z-0.2 I0.0063 J-0.0108
G2 X56.4636 Y82.0827 Z-0.2333 I-0.0125 J0.0
G2 Y82.1043 Z-0.2667 I0.0062 J0.0108
G2 X56.4824 Y82.0935 Z-0.3 I0.0063 J-0.0108
G2 X56.4636 Y82.0827 Z-0.3333 I-0.0125 J0.0
G2 Y82.1043 Z-0.3667 I0.0062 J0.0108
G2 X56.4824 Y82.0935 Z-0.4 I0.0063 J-0.0108
G2 X56.4636 Y82.0827 Z-0.4333 I-0.0125 J0.0
G2 Y82.1043 Z-0.4667 I0.0062 J0.0108
G2 X56.4824 Y82.0935 Z-0.5 I0.0063 J-0.0108
G2 X56.4636 Y82.0827 Z-0.5333 I-0.0125 J0.0
G2 Y82.1043 Z-0.5667 I0.0062 J0.0108
G2 X56.4824 Y82.0935 Z-0.6 I0.0063 J-0.0108
G2 X56.4636 Y82.0827 Z-0.6333 I-0.0125 J0.0
G2 Y82.1043 Z-0.6667 I0.0062 J0.0108
G2 X56.4824 Y82.0935 Z-0.7 I0.0063 J-0.0108
G2 X56.4636 Y82.0827 Z-0.7333 I-0.0125 J0.0
G2 Y82.1043 Z-0.7667 I0.0062 J0.0108
G2 X56.4824 Y82.0935 Z-0.8 I0.0063 J-0.0108
G2 X56.4636 Y82.0827 Z-0.8333 I-0.0125 J0.0
G2 Y82.1043 Z-0.8667 I0.0062 J0.0108
G2 X56.4824 Y82.0935 Z-0.9 I0.0063 J-0.0108
G2 X56.4636 Y82.0827 Z-0.9333 I-0.0125 J0.0
G2 Y82.1043 Z-0.9667 I0.0062 J0.0108
G2 X56.4824 Y82.0935 Z-1.0 I0.0063 J-0.0108
G2 X56.4636 Y82.0827 Z-1.0333 I-0.0125 J0.0
G2 Y82.1043 Z-1.0667 I0.0062 J0.0108
G2 X56.4824 Y82.0935 Z-1.1 I0.0063 J-0.0108
G2 X56.4636 Y82.0827 Z-1.1333 I-0.0125 J0.0
G2 Y82.1043 Z-1.1667 I0.0062 J0.0108
G2 X56.4824 Y82.0935 Z-1.2 I0.0063 J-0.0108
G2 X56.4636 Y82.0827 Z-1.2333 I-0.0125 J0.0
G2 Y82.1043 Z-1.2667 I0.0062 J0.0108
G2 X56.4824 Y82.0935 Z-1.3 I0.0063 J-0.0108
G2 X56.4636 Y82.0827 Z-1.3333 I-0.0125 J0.0
G2 Y82.1043 Z-1.3667 I0.0062 J0.0108
G2 X56.4824 Y82.0935 Z-1.4 I0.0063 J-0.0108
G2 X56.4636 Y82.0827 Z-1.4333 I-0.0125 J0.0
G2 Y82.1043 Z-1.4667 I0.0062 J0.0108
G2 X56.4824 Y82.0935 Z-1.5 I0.0063 J-0.0108
G2 X56.4636 Y82.0827 Z-1.5333 I-0.0125 J0.0
G2 Y82.1043 Z-1.5667 I0.0062 J0.0108
G2 X56.4824 Y82.0935 Z-1.6 I0.0063 J-0.0108
G2 X56.4636 Y82.0827 Z-1.6333 I-0.0125 J0.0
G2 Y82.1043 Z-1.6667 I0.0062 J0.0108
G2 X56.4824 Y82.0935 Z-1.7 I0.0063 J-0.0108
G2 X56.4636 Y82.0827 Z-1.7333 I-0.0125 J0.0
G2 Y82.1043 Z-1.7667 I0.0062 J0.0108
G2 X56.4824 Y82.0935 Z-1.8 I0.0063 J-0.0108
G2 X56.4636 Y82.0827 Z-1.8333 I-0.0125 J0.0
G2 Y82.1043 Z-1.8667 I0.0062 J0.0108
G2 X56.4824 Y82.0935 Z-1.9 I0.0063 J-0.0108
G2 X56.4636 Y82.0827 Z-1.9333 I-0.0125 J0.0
G2 Y82.1043 Z-1.9667 I0.0062 J0.0108
G2 X56.4824 Y82.0935 Z-2.0 I0.0063 J-0.0108
G2 X56.4636 Y82.0827 Z-2.0333 I-0.0125 J0.0
G2 Y82.1043 Z-2.0667 I0.0062 J0.0108
G2 X56.4824 Y82.0935 Z-2.1 I0.0063 J-0.0108
G2 X56.4636 Y82.0827 Z-2.1333 I-0.0125 J0.0
G2 Y82.1043 Z-2.1667 I0.0062 J0.0108
G2 X56.4824 Y82.0935 Z-2.2 I0.0063 J-0.0108
G2 X56.4636 Y82.0827 Z-2.2333 I-0.0125 J0.0
G2 Y82.1043 Z-2.2667 I0.0062 J0.0108
G2 X56.4824 Y82.0935 Z-2.3 I0.0063 J-0.0108
G2 X56.4636 Y82.0827 Z-2.3333 I-0.0125 J0.0
G2 Y82.1043 Z-2.3667 I0.0062 J0.0108
G2 X56.4824 Y82.0935 Z-2.4 I0.0063 J-0.0108
G2 X56.4636 Y82.0827 Z-2.4333 I-0.0125 J0.0
G2 Y82.1043 Z-2.4667 I0.0062 J0.0108
G2 X56.4824 Y82.0935 Z-2.5 I0.0063 J-0.0108
G2 X56.4636 Y82.0827 Z-2.5333 I-0.0125 J0.0
G2 Y82.1043 Z-2.5667 I0.0062 J0.0108
G2 X56.4824 Y82.0935 Z-2.6 I0.0063 J-0.0108
G2 X56.4636 Y82.0827 Z-2.6333 I-0.0125 J0.0
G2 Y82.1043 Z-2.6667 I0.0062 J0.0108
G2 X56.4824 Y82.0935 Z-2.7 I0.0063 J-0.0108
G2 X56.4636 Y82.0827 Z-2.7333 I-0.0125 J0.0
G2 Y82.1043 Z-2.7667 I0.0062 J0.0108
G2 X56.4824 Y82.0935 Z-2.8 I0.0063 J-0.0108
G2 X56.4636 Y82.0827 Z-2.8333 I-0.0125 J0.0
G2 Y82.1043 Z-2.8667 I0.0062 J0.0108
G2 X56.4824 Y82.0935 Z-2.9 I0.0063 J-0.0108
G2 X56.4636 Y82.0827 Z-2.9333 I-0.0125 J0.0
G2 Y82.1043 Z-2.9667 I0.0063 J0.0108
G2 X56.4824 Y82.0935 Z-3.0 I0.0063 J-0.0108
G2 X56.4636 Y82.0827 Z-3.0333 I-0.0125 J0.0
G2 Y82.1043 Z-3.0667 I0.0063 J0.0108
G2 X56.4824 Y82.0935 Z-3.1 I0.0063 J-0.0108
G2 X56.4636 Y82.0827 Z-3.1333 I-0.0125 J0.0
G2 Y82.1043 Z-3.1667 I0.0063 J0.0108
G2 X56.4824 Y82.0935 Z-3.2 I0.0063 J-0.0108
G2 X56.4636 Y82.0827 I-0.0125 J0.0
G2 Y82.1043 I0.0063 J0.0108
G2 X56.4824 Y82.0935 I0.0062 J-0.0108
G0 Z3.0
G0 X39.0479 Y78.0731
G1 F1000.0 Z0.0
G2 F2000.0 X39.0291 Y78.0623 Z-0.0333 I-0.0125 J0.0
G2 Y78.0839 Z-0.0667 I0.0062 J0.0108
G2 X39.0479 Y78.0731 Z-0.1 I0.0063 J-0.0108
G2 X39.0291 Y78.0623 Z-0.1333 I-0.0125 J0.0
G2 Y78.0839 Z-0.1667 I0.0062 J0.0108
G2 X39.0479 Y78.0731 Z-0.2 I0.0063 J-0.0108
G2 X39.0291 Y78.0623 Z-0.2333 I-0.0125 J0.0
G2 Y78.0839 Z-0.2667 I0.0062 J0.0108
G2 X39.0479 Y78.0731 Z-0.3 I0.0063 J-0.0108
G2 X39.0291 Y78.0623 Z-0.3333 I-0.0125 J0.0
G2 Y78.0839 Z-0.3667 I0.0062 J0.0108
G2 X39.0479 Y78.0731 Z-0.4 I0.0063 J-0.0108
G2 X39.0291 Y78.0623 Z-0.4333 I-0.0125 J0.0
G2 Y78.0839 Z-0.4667 I0.0062 J0.0108
G2 X39.0479 Y78.0731 Z-0.5 I0.0063 J-0.0108
G2 X39.0291 Y78.0623 Z-0.5333 I-0.0125 J0.0
G2 Y78.0839 Z-0.5667 I0.0062 J0.0108
G2 X39.0479 Y78.0731 Z-0.6 I0.0063 J-0.0108
G2 X39.0291 Y78.0623 Z-0.6333 I-0.0125 J0.0
G2 Y78.0839 Z-0.6667 I0.0062 J0.0108
G2 X39.0479 Y78.0731 Z-0.7 I0.0063 J-0.0108
G2 X39.0291 Y78.0623 Z-0.7333 I-0.0125 J0.0
G2 Y78.0839 Z-0.7667 I0.0062 J0.0108
G2 X39.0479 Y78.0731 Z-0.8 I0.0063 J-0.0108
G2 X39.0291 Y78.0623 Z-0.8333 I-0.0125 J0.0
G2 Y78.0839 Z-0.8667 I0.0062 J0.0108
G2 X39.0479 Y78.0731 Z-0.9 I0.0063 J-0.0108
G2 X39.0291 Y78.0623 Z-0.9333 I-0.0125 J0.0
G2 Y78.0839 Z-0.9667 I0.0062 J0.0108
G2 X39.0479 Y78.0731 Z-1.0 I0.0063 J-0.0108
G2 X39.0291 Y78.0623 Z-1.0333 I-0.0125 J0.0
G2 Y78.0839 Z-1.0667 I0.0062 J0.0108
G2 X39.0479 Y78.0731 Z-1.1 I0.0063 J-0.0108
G2 X39.0291 Y78.0623 Z-1.1333 I-0.0125 J0.0
G2 Y78.0839 Z-1.1667 I0.0062 J0.0108
G2 X39.0479 Y78.0731 Z-1.2 I0.0063 J-0.0108
G2 X39.0291 Y78.0623 Z-1.2333 I-0.0125 J0.0
G2 Y78.0839 Z-1.2667 I0.0062 J0.0108
G2 X39.0479 Y78.0731 Z-1.3 I0.0063 J-0.0108
G2 X39.0291 Y78.0623 Z-1.3333 I-0.0125 J0.0
G2 Y78.0839 Z-1.3667 I0.0062 J0.0108
G2 X39.0479 Y78.0731 Z-1.4 I0.0063 J-0.0108
G2 X39.0291 Y78.0623 Z-1.4333 I-0.0125 J0.0
G2 Y78.0839 Z-1.4667 I0.0062 J0.0108
G2 X39.0479 Y78.0731 Z-1.5 I0.0063 J-0.0108
G2 X39.0291 Y78.0623 Z-1.5333 I-0.0125 J0.0
G2 Y78.0839 Z-1.5667 I0.0062 J0.0108
G2 X39.0479 Y78.0731 Z-1.6 I0.0063 J-0.0108
G2 X39.0291 Y78.0623 Z-1.6333 I-0.0125 J0.0
G2 Y78.0839 Z-1.6667 I0.0062 J0.0108
G2 X39.0479 Y78.0731 Z-1.7 I0.0063 J-0.0108
G2 X39.0291 Y78.0623 Z-1.7333 I-0.0125 J0.0
G2 Y78.0839 Z-1.7667 I0.0062 J0.0108
G2 X39.0479 Y78.0731 Z-1.8 I0.0063 J-0.0108
G2 X39.0291 Y78.0623 Z-1.8333 I-0.0125 J0.0
G2 Y78.0839 Z-1.8667 I0.0062 J0.0108
G2 X39.0479 Y78.0731 Z-1.9 I0.0063 J-0.0108
G2 X39.0291 Y78.0623 Z-1.9333 I-0.0125 J0.0
G2 Y78.0839 Z-1.9667 I0.0062 J0.0108
G2 X39.0479 Y78.0731 Z-2.0 I0.0063 J-0.0108
G2 X39.0291 Y78.0623 Z-2.0333 I-0.0125 J0.0
G2 Y78.0839 Z-2.0667 I0.0062 J0.0108
G2 X39.0479 Y78.0731 Z-2.1 I0.0063 J-0.0108
G2 X39.0291 Y78.0623 Z-2.1333 I-0.0125 J0.0
G2 Y78.0839 Z-2.1667 I0.0062 J0.0108
G2 X39.0479 Y78.0731 Z-2.2 I0.0063 J-0.0108
G2 X39.0291 Y78.0623 Z-2.2333 I-0.0125 J0.0
G2 Y78.0839 Z-2.2667 I0.0062 J0.0108
G2 X39.0479 Y78.0731 Z-2.3 I0.0063 J-0.0108
G2 X39.0291 Y78.0623 Z-2.3333 I-0.0125 J0.0
G2 Y78.0839 Z-2.3667 I0.0062 J0.0108
G2 X39.0479 Y78.0731 Z-2.4 I0.0063 J-0.0108
G2 X39.0291 Y78.0623 Z-2.4333 I-0.0125 J0.0
G2 Y78.0839 Z-2.4667 I0.0062 J0.0108
G2 X39.0479 Y78.0731 Z-2.5 I0.0063 J-0.0108
G2 X39.0291 Y78.0623 Z-2.5333 I-0.0125 J0.0
G2 Y78.0839 Z-2.5667 I0.0062 J0.0108
G2 X39.0479 Y78.0731 Z-2.6 I0.0063 J-0.0108
G2 X39.0291 Y78.0623 Z-2.6333 I-0.0125 J0.0
G2 Y78.0839 Z-2.6667 I0.0062 J0.0108
G2 X39.0479 Y78.0731 Z-2.7 I0.0063 J-0.0108
G2 X39.0291 Y78.0623 Z-2.7333 I-0.0125 J0.0
G2 Y78.0839 Z-2.7667 I0.0062 J0.0108
G2 X39.0479 Y78.0731 Z-2.8 I0.0063 J-0.0108
G2 X39.0291 Y78.0623 Z-2.8333 I-0.0125 J0.0
G2 Y78.0839 Z-2.8667 I0.0062 J0.0108
G2 X39.0479 Y78.0731 Z-2.9 I0.0063 J-0.0108
G2 X39.0291 Y78.0623 Z-2.9333 I-0.0125 J0.0
G2 Y78.0839 Z-2.9667 I0.0063 J0.0108
G2 X39.0479 Y78.0731 Z-3.0 I0.0063 J-0.0108
G2 X39.0291 Y78.0623 Z-3.0333 I-0.0125 J0.0
G2 Y78.0839 Z-3.0667 I0.0063 J0.0108
G2 X39.0479 Y78.0731 Z-3.1 I0.0063 J-0.0108
G2 X39.0291 Y78.0623 Z-3.1333 I-0.0125 J0.0
G2 Y78.0839 Z-3.1667 I0.0063 J0.0108
G2 X39.0479 Y78.0731 Z-3.2 I0.0063 J-0.0108
G2 X39.0291 Y78.0623 I-0.0125 J0.0
G2 Y78.0839 I0.0063 J0.0108
G2 X39.0479 Y78.0731 I0.0062 J-0.0108
G0 Z3.0
G0 Y64.2309
G1 F1000.0 Z0.0
G2 F2000.0 X39.0291 Y64.2201 Z-0.0333 I-0.0125 J0.0
G2 Y64.2417 Z-0.0667 I0.0062 J0.0108
G2 X39.0479 Y64.2309 Z-0.1 I0.0063 J-0.0108
G2 X39.0291 Y64.2201 Z-0.1333 I-0.0125 J0.0
G2 Y64.2417 Z-0.1667 I0.0062 J0.0108
G2 X39.0479 Y64.2309 Z-0.2 I0.0063 J-0.0108
G2 X39.0291 Y64.2201 Z-0.2333 I-0.0125 J0.0
G2 Y64.2417 Z-0.2667 I0.0062 J0.0108
G2 X39.0479 Y64.2309 Z-0.3 I0.0063 J-0.0108
G2 X39.0291 Y64.2201 Z-0.3333 I-0.0125 J0.0
G2 Y64.2417 Z-0.3667 I0.0062 J0.0108
G2 X39.0479 Y64.2309 Z-0.4 I0.0063 J-0.0108
G2 X39.0291 Y64.2201 Z-0.4333 I-0.0125 J0.0
G2 Y64.2417 Z-0.4667 I0.0062 J0.0108
G2 X39.0479 Y64.2309 Z-0.5 I0.0063 J-0.0108
G2 X39.0291 Y64.2201 Z-0.5333 I-0.0125 J0.0
G2 Y64.2417 Z-0.5667 I0.0062 J0.0108
G2 X39.0479 Y64.2309 Z-0.6 I0.0063 J-0.0108
G2 X39.0291 Y64.2201 Z-0.6333 I-0.0125 J0.0
G2 Y64.2417 Z-0.6667 I0.0062 J0.0108
G2 X39.0479 Y64.2309 Z-0.7 I0.0063 J-0.0108
G2 X39.0291 Y64.2201 Z-0.7333 I-0.0125 J0.0
G2 Y64.2417 Z-0.7667 I0.0062 J0.0108
G2 X39.0479 Y64.2309 Z-0.8 I0.0063 J-0.0108
G2 X39.0291 Y64.2201 Z-0.8333 I-0.0125 J0.0
G2 Y64.2417 Z-0.8667 I0.0062 J0.0108
G2 X39.0479 Y64.2309 Z-0.9 I0.0063 J-0.0108
G2 X39.0291 Y64.2201 Z-0.9333 I-0.0125 J0.0
G2 Y64.2417 Z-0.9667 I0.0062 J0.0108
G2 X39.0479 Y64.2309 Z-1.0 I0.0063 J-0.0108
G2 X39.0291 Y64.2201 Z-1.0333 I-0.0125 J0.0
G2 Y64.2417 Z-1.0667 I0.0062 J0.0108
G2 X39.0479 Y64.2309 Z-1.1 I0.0063 J-0.0108
G2 X39.0291 Y64.2201 Z-1.1333 I-0.0125 J0.0
G2 Y64.2417 Z-1.1667 I0.0062 J0.0108
G2 X39.0479 Y64.2309 Z-1.2 I0.0063 J-0.0108
G2 X39.0291 Y64.2201 Z-1.2333 I-0.0125 J0.0
G2 Y64.2417 Z-1.2667 I0.0062 J0.0108
G2 X39.0479 Y64.2309 Z-1.3 I0.0063 J-0.0108
G2 X39.0291 Y64.2201 Z-1.3333 I-0.0125 J0.0
G2 Y64.2417 Z-1.3667 I0.0062 J0.0108
G2 X39.0479 Y64.2309 Z-1.4 I0.0063 J-0.0108
G2 X39.0291 Y64.2201 Z-1.4333 I-0.0125 J0.0
G2 Y64.2417 Z-1.4667 I0.0062 J0.0108
G2 X39.0479 Y64.2309 Z-1.5 I0.0063 J-0.0108
G2 X39.0291 Y64.2201 Z-1.5333 I-0.0125 J0.0
G2 Y64.2417 Z-1.5667 I0.0062 J0.0108
G2 X39.0479 Y64.2309 Z-1.6 I0.0063 J-0.0108
G2 X39.0291 Y64.2201 Z-1.6333 I-0.0125 J0.0
G2 Y64.2417 Z-1.6667 I0.0062 J0.0108
G2 X39.0479 Y64.2309 Z-1.7 I0.0063 J-0.0108
G2 X39.0291 Y64.2201 Z-1.7333 I-0.0125 J0.0
G2 Y64.2417 Z-1.7667 I0.0062 J0.0108
G2 X39.0479 Y64.2309 Z-1.8 I0.0063 J-0.0108
G2 X39.0291 Y64.2201 Z-1.8333 I-0.0125 J0.0
G2 Y64.2417 Z-1.8667 I0.0062 J0.0108
G2 X39.0479 Y64.2309 Z-1.9 I0.0063 J-0.0108
G2 X39.0291 Y64.2201 Z-1.9333 I-0.0125 J0.0
G2 Y64.2417 Z-1.9667 I0.0062 J0.0108
G2 X39.0479 Y64.2309 Z-2.0 I0.0063 J-0.0108
G2 X39.0291 Y64.2201 Z-2.0333 I-0.0125 J0.0
G2 Y64.2417 Z-2.0667 I0.0062 J0.0108
G2 X39.0479 Y64.2309 Z-2.1 I0.0063 J-0.0108
G2 X39.0291 Y64.2201 Z-2.1333 I-0.0125 J0.0
G2 Y64.2417 Z-2.1667 I0.0062 J0.0108
G2 X39.0479 Y64.2309 Z-2.2 I0.0063 J-0.0108
G2 X39.0291 Y64.2201 Z-2.2333 I-0.0125 J0.0
G2 Y64.2417 Z-2.2667 I0.0062 J0.0108
G2 X39.0479 Y64.2309 Z-2.3 I0.0063 J-0.0108
G2 X39.0291 Y64.2201 Z-2.3333 I-0.0125 J0.0
G2 Y64.2417 Z-2.3667 I0.0062 J0.0108
G2 X39.0479 Y64.2309 Z-2.4 I0.0063 J-0.0108
G2 X39.0291 Y64.2201 Z-2.4333 I-0.0125 J0.0
G2 Y64.2417 Z-2.4667 I0.0062 J0.0108
G2 X39.0479 Y64.2309 Z-2.5 I0.0063 J-0.0108
G2 X39.0291 Y64.2201 Z-2.5333 I-0.0125 J0.0
G2 Y64.2417 Z-2.5667 I0.0062 J0.0108
G2 X39.0479 Y64.2309 Z-2.6 I0.0063 J-0.0108
G2 X39.0291 Y64.2201 Z-2.6333 I-0.0125 J0.0
G2 Y64.2417 Z-2.6667 I0.0062 J0.0108
G2 X39.0479 Y64.2309 Z-2.7 I0.0063 J-0.0108
G2 X39.0291 Y64.2201 Z-2.7333 I-0.0125 J0.0
G2 Y64.2417 Z-2.7667 I0.0062 J0.0108
G2 X39.0479 Y64.2309 Z-2.8 I0.0063 J-0.0108
G2 X39.0291 Y64.2201 Z-2.8333 I-0.0125 J0.0
G2 Y64.2417 Z-2.8667 I0.0062 J0.0108
G2 X39.0479 Y64.2309 Z-2.9 I0.0063 J-0.0108
G2 X39.0291 Y64.2201 Z-2.9333 I-0.0125 J0.0
G2 Y64.2417 Z-2.9667 I0.0063 J0.0108
G2 X39.0479 Y64.2309 Z-3.0 I0.0063 J-0.0108
G2 X39.0291 Y64.2201 Z-3.0333 I-0.0125 J0.0
G2 Y64.2417 Z-3.0667 I0.0063 J0.0108
G2 X39.0479 Y64.2309 Z-3.1 I0.0063 J-0.0108
G2 X39.0291 Y64.2201 Z-3.1333 I-0.0125 J0.0
G2 Y64.2417 Z-3.1667 I0.0063 J0.0108
G2 X39.0479 Y64.2309 Z-3.2 I0.0063 J-0.0108
G2 X39.0291 Y64.2201 I-0.0125 J0.0
G2 Y64.2417 I0.0063 J0.0108
G2 X39.0479 Y64.2309 I0.0062 J-0.0108
G0 Z3.0
G0 Y50.2089
G1 F1000.0 Z0.0
G2 F2000.0 X39.0291 Y50.1981 Z-0.0333 I-0.0125 J0.0
G2 Y50.2198 Z-0.0667 I0.0063 J0.0108
G2 X39.0479 Y50.2089 Z-0.1 I0.0063 J-0.0108
G2 X39.0291 Y50.1981 Z-0.1333 I-0.0125 J0.0
G2 Y50.2198 Z-0.1667 I0.0063 J0.0108
G2 X39.0479 Y50.2089 Z-0.2 I0.0063 J-0.0108
G2 X39.0291 Y50.1981 Z-0.2333 I-0.0125 J0.0
G2 Y50.2198 Z-0.2667 I0.0063 J0.0108
G2 X39.0479 Y50.2089 Z-0.3 I0.0063 J-0.0108
G2 X39.0291 Y50.1981 Z-0.3333 I-0.0125 J0.0
G2 Y50.2198 Z-0.3667 I0.0063 J0.0108
G2 X39.0479 Y50.2089 Z-0.4 I0.0063 J-0.0108
G2 X39.0291 Y50.1981 Z-0.4333 I-0.0125 J0.0
G2 Y50.2198 Z-0.4667 I0.0063 J0.0108
G2 X39.0479 Y50.2089 Z-0.5 I0.0063 J-0.0108
G2 X39.0291 Y50.1981 Z-0.5333 I-0.0125 J0.0
G2 Y50.2198 Z-0.5667 I0.0063 J0.0108
G2 X39.0479 Y50.2089 Z-0.6 I0.0063 J-0.0108
G2 X39.0291 Y50.1981 Z-0.6333 I-0.0125 J0.0
G2 Y50.2198 Z-0.6667 I0.0063 J0.0108
G2 X39.0479 Y50.2089 Z-0.7 I0.0063 J-0.0108
G2 X39.0291 Y50.1981 Z-0.7333 I-0.0125 J0.0
G2 Y50.2198 Z-0.7667 I0.0063 J0.0108
G2 X39.0479 Y50.2089 Z-0.8 I0.0063 J-0.0108
G2 X39.0291 Y50.1981 Z-0.8333 I-0.0125 J0.0
G2 Y50.2198 Z-0.8667 I0.0063 J0.0108
G2 X39.0479 Y50.2089 Z-0.9 I0.0063 J-0.0108
G2 X39.0291 Y50.1981 Z-0.9333 I-0.0125 J0.0
G2 Y50.2198 Z-0.9667 I0.0063 J0.0108
G2 X39.0479 Y50.2089 Z-1.0 I0.0063 J-0.0108
G2 X39.0291 Y50.1981 Z-1.0333 I-0.0125 J0.0
G2 Y50.2198 Z-1.0667 I0.0063 J0.0108
G2 X39.0479 Y50.2089 Z-1.1 I0.0063 J-0.0108
G2 X39.0291 Y50.1981 Z-1.1333 I-0.0125 J0.0
G2 Y50.2198 Z-1.1667 I0.0063 J0.0108
G2 X39.0479 Y50.2089 Z-1.2 I0.0063 J-0.0108
G2 X39.0291 Y50.1981 Z-1.2333 I-0.0125 J0.0
G2 Y50.2198 Z-1.2667 I0.0063 J0.0108
G2 X39.0479 Y50.2089 Z-1.3 I0.0063 J-0.0108
G2 X39.0291 Y50.1981 Z-1.3333 I-0.0125 J0.0
G2 Y50.2198 Z-1.3667 I0.0063 J0.0108
G2 X39.0479 Y50.2089 Z-1.4 I0.0063 J-0.0108
G2 X39.0291 Y50.1981 Z-1.4333 I-0.0125 J0.0
G2 Y50.2198 Z-1.4667 I0.0063 J0.0108
G2 X39.0479 Y50.2089 Z-1.5 I0.0063 J-0.0108
G2 X39.0291 Y50.1981 Z-1.5333 I-0.0125 J0.0
G2 Y50.2198 Z-1.5667 I0.0063 J0.0108
G2 X39.0479 Y50.2089 Z-1.6 I0.0063 J-0.0108
G2 X39.0291 Y50.1981 Z-1.6333 I-0.0125 J0.0
G2 Y50.2198 Z-1.6667 I0.0063 J0.0108
G2 X39.0479 Y50.2089 Z-1.7 I0.0063 J-0.0108
G2 X39.0291 Y50.1981 Z-1.7333 I-0.0125 J0.0
G2 Y50.2198 Z-1.7667 I0.0063 J0.0108
G2 X39.0479 Y50.2089 Z-1.8 I0.0063 J-0.0108
G2 X39.0291 Y50.1981 Z-1.8333 I-0.0125 J0.0
G2 Y50.2198 Z-1.8667 I0.0063 J0.0108
G2 X39.0479 Y50.2089 Z-1.9 I0.0063 J-0.0108
G2 X39.0291 Y50.1981 Z-1.9333 I-0.0125 J0.0
G2 Y50.2198 Z-1.9667 I0.0063 J0.0108
G2 X39.0479 Y50.2089 Z-2.0 I0.0063 J-0.0108
G2 X39.0291 Y50.1981 Z-2.0333 I-0.0125 J0.0
G2 Y50.2198 Z-2.0667 I0.0063 J0.0108
G2 X39.0479 Y50.2089 Z-2.1 I0.0063 J-0.0108
G2 X39.0291 Y50.1981 Z-2.1333 I-0.0125 J0.0
G2 Y50.2198 Z-2.1667 I0.0063 J0.0108
G2 X39.0479 Y50.2089 Z-2.2 I0.0063 J-0.0108
G2 X39.0291 Y50.1981 Z-2.2333 I-0.0125 J0.0
G2 Y50.2198 Z-2.2667 I0.0063 J0.0108
G2 X39.0479 Y50.2089 Z-2.3 I0.0063 J-0.0108
G2 X39.0291 Y50.1981 Z-2.3333 I-0.0125 J0.0
G2 Y50.2198 Z-2.3667 I0.0063 J0.0108
G2 X39.0479 Y50.2089 Z-2.4 I0.0063 J-0.0108
G2 X39.0291 Y50.1981 Z-2.4333 I-0.0125 J0.0
G2 Y50.2198 Z-2.4667 I0.0063 J0.0108
G2 X39.0479 Y50.2089 Z-2.5 I0.0063 J-0.0108
G2 X39.0291 Y50.1981 Z-2.5333 I-0.0125 J0.0
G2 Y50.2198 Z-2.5667 I0.0063 J0.0108
G2 X39.0479 Y50.2089 Z-2.6 I0.0063 J-0.0108
G2 X39.0291 Y50.1981 Z-2.6333 I-0.0125 J0.0
G2 Y50.2198 Z-2.6667 I0.0063 J0.0108
G2 X39.0479 Y50.2089 Z-2.7 I0.0063 J-0.0108
G2 X39.0291 Y50.1981 Z-2.7333 I-0.0125 J0.0
G2 Y50.2198 Z-2.7667 I0.0063 J0.0108
G2 X39.0479 Y50.2089 Z-2.8 I0.0063 J-0.0108
G2 X39.0291 Y50.1981 Z-2.8333 I-0.0125 J0.0
G2 Y50.2198 Z-2.8667 I0.0063 J0.0108
G2 X39.0479 Y50.2089 Z-2.9 I0.0063 J-0.0108
G2 X39.0291 Y50.1981 Z-2.9333 I-0.0125 J0.0
G2 Y50.2198 Z-2.9667 I0.0063 J0.0108
G2 X39.0479 Y50.2089 Z-3.0 I0.0062 J-0.0108
G2 X39.0291 Y50.1981 Z-3.0333 I-0.0125 J0.0
G2 Y50.2198 Z-3.0667 I0.0063 J0.0108
G2 X39.0479 Y50.2089 Z-3.1 I0.0062 J-0.0108
G2 X39.0291 Y50.1981 Z-3.1333 I-0.0125 J0.0
G2 Y50.2198 Z-3.1667 I0.0063 J0.0108
G2 X39.0479 Y50.2089 Z-3.2 I0.0062 J-0.0108
G2 X39.0291 Y50.1981 I-0.0125 J0.0
G2 Y50.2198 I0.0063 J0.0108
G2 X39.0479 Y50.2089 I0.0062 J-0.0108
G0 Z3.0
G0 X56.5274 Y59.538
G1 F1000.0 Z0.0
G2 F2000.0 X56.5087 Y59.5272 Z-0.0333 I-0.0125 J0.0
G2 Y59.5488 Z-0.0667 I0.0063 J0.0108
G2 X56.5274 Y59.538 Z-0.1 I0.0063 J-0.0108
G2 X56.5087 Y59.5272 Z-0.1333 I-0.0125 J0.0
G2 Y59.5488 Z-0.1667 I0.0063 J0.0108
G2 X56.5274 Y59.538 Z-0.2 I0.0063 J-0.0108
G2 X56.5087 Y59.5272 Z-0.2333 I-0.0125 J0.0
G2 Y59.5488 Z-0.2667 I0.0063 J0.0108
G2 X56.5274 Y59.538 Z-0.3 I0.0063 J-0.0108
G2 X56.5087 Y59.5272 Z-0.3333 I-0.0125 J0.0
G2 Y59.5488 Z-0.3667 I0.0063 J0.0108
G2 X56.5274 Y59.538 Z-0.4 I0.0063 J-0.0108
G2 X56.5087 Y59.5272 Z-0.4333 I-0.0125 J0.0
G2 Y59.5488 Z-0.4667 I0.0063 J0.0108
G2 X56.5274 Y59.538 Z-0.5 I0.0063 J-0.0108
G2 X56.5087 Y59.5272 Z-0.5333 I-0.0125 J0.0
G2 Y59.5488 Z-0.5667 I0.0063 J0.0108
G2 X56.5274 Y59.538 Z-0.6 I0.0063 J-0.0108
G2 X56.5087 Y59.5272 Z-0.6333 I-0.0125 J0.0
G2 Y59.5488 Z-0.6667 I0.0063 J0.0108
G2 X56.5274 Y59.538 Z-0.7 I0.0063 J-0.0108
G2 X56.5087 Y59.5272 Z-0.7333 I-0.0125 J0.0
G2 Y59.5488 Z-0.7667 I0.0063 J0.0108
G2 X56.5274 Y59.538 Z-0.8 I0.0063 J-0.0108
G2 X56.5087 Y59.5272 Z-0.8333 I-0.0125 J0.0
G2 Y59.5488 Z-0.8667 I0.0063 J0.0108
G2 X56.5274 Y59.538 Z-0.9 I0.0063 J-0.0108
G2 X56.5087 Y59.5272 Z-0.9333 I-0.0125 J0.0
G2 Y59.5488 Z-0.9667 I0.0063 J0.0108
G2 X56.5274 Y59.538 Z-1.0 I0.0063 J-0.0108
G2 X56.5087 Y59.5272 Z-1.0333 I-0.0125 J0.0
G2 Y59.5488 Z-1.0667 I0.0063 J0.0108
G2 X56.5274 Y59.538 Z-1.1 I0.0063 J-0.0108
G2 X56.5087 Y59.5272 Z-1.1333 I-0.0125 J0.0
G2 Y59.5488 Z-1.1667 I0.0063 J0.0108
G2 X56.5274 Y59.538 Z-1.2 I0.0063 J-0.0108
G2 X56.5087 Y59.5272 Z-1.2333 I-0.0125 J0.0
G2 Y59.5488 Z-1.2667 I0.0063 J0.0108
G2 X56.5274 Y59.538 Z-1.3 I0.0063 J-0.0108
G2 X56.5087 Y59.5272 Z-1.3333 I-0.0125 J0.0
G2 Y59.5488 Z-1.3667 I0.0063 J0.0108
G2 X56.5274 Y59.538 Z-1.4 I0.0063 J-0.0108
G2 X56.5087 Y59.5272 Z-1.4333 I-0.0125 J0.0
G2 Y59.5488 Z-1.4667 I0.0063 J0.0108
G2 X56.5274 Y59.538 Z-1.5 I0.0063 J-0.0108
G2 X56.5087 Y59.5272 Z-1.5333 I-0.0125 J0.0
G2 Y59.5488 Z-1.5667 I0.0063 J0.0108
G2 X56.5274 Y59.538 Z-1.6 I0.0063 J-0.0108
G2 X56.5087 Y59.5272 Z-1.6333 I-0.0125 J0.0
G2 Y59.5488 Z-1.6667 I0.0063 J0.0108
G2 X56.5274 Y59.538 Z-1.7 I0.0063 J-0.0108
G2 X56.5087 Y59.5272 Z-1.7333 I-0.0125 J0.0
G2 Y59.5488 Z-1.7667 I0.0063 J0.0108
G2 X56.5274 Y59.538 Z-1.8 I0.0063 J-0.0108
G2 X56.5087 Y59.5272 Z-1.8333 I-0.0125 J0.0
G2 Y59.5488 Z-1.8667 I0.0063 J0.0108
G2 X56.5274 Y59.538 Z-1.9 I0.0063 J-0.0108
G2 X56.5087 Y59.5272 Z-1.9333 I-0.0125 J0.0
G2 Y59.5488 Z-1.9667 I0.0063 J0.0108
G2 X56.5274 Y59.538 Z-2.0 I0.0063 J-0.0108
G2 X56.5087 Y59.5272 Z-2.0333 I-0.0125 J0.0
G2 Y59.5488 Z-2.0667 I0.0063 J0.0108
G2 X56.5274 Y59.538 Z-2.1 I0.0063 J-0.0108
G2 X56.5087 Y59.5272 Z-2.1333 I-0.0125 J0.0
G2 Y59.5488 Z-2.1667 I0.0063 J0.0108
G2 X56.5274 Y59.538 Z-2.2 I0.0063 J-0.0108
G2 X56.5087 Y59.5272 Z-2.2333 I-0.0125 J0.0
G2 Y59.5488 Z-2.2667 I0.0063 J0.0108
G2 X56.5274 Y59.538 Z-2.3 I0.0063 J-0.0108
G2 X56.5087 Y59.5272 Z-2.3333 I-0.0125 J0.0
G2 Y59.5488 Z-2.3667 I0.0063 J0.0108
G2 X56.5274 Y59.538 Z-2.4 I0.0063 J-0.0108
G2 X56.5087 Y59.5272 Z-2.4333 I-0.0125 J0.0
G2 Y59.5488 Z-2.4667 I0.0063 J0.0108
G2 X56.5274 Y59.538 Z-2.5 I0.0063 J-0.0108
G2 X56.5087 Y59.5272 Z-2.5333 I-0.0125 J0.0
G2 Y59.5488 Z-2.5667 I0.0063 J0.0108
G2 X56.5274 Y59.538 Z-2.6 I0.0063 J-0.0108
G2 X56.5087 Y59.5272 Z-2.6333 I-0.0125 J0.0
G2 Y59.5488 Z-2.6667 I0.0063 J0.0108
G2 X56.5274 Y59.538 Z-2.7 I0.0063 J-0.0108
G2 X56.5087 Y59.5272 Z-2.7333 I-0.0125 J0.0
G2 Y59.5488 Z-2.7667 I0.0063 J0.0108
G2 X56.5274 Y59.538 Z-2.8 I0.0063 J-0.0108
G2 X56.5087 Y59.5272 Z-2.8333 I-0.0125 J0.0
G2 Y59.5488 Z-2.8667 I0.0063 J0.0108
G2 X56.5274 Y59.538 Z-2.9 I0.0063 J-0.0108
G2 X56.5087 Y59.5272 Z-2.9333 I-0.0125 J0.0
G2 Y59.5488 Z-2.9667 I0.0063 J0.0108
G2 X56.5274 Y59.538 Z-3.0 I0.0062 J-0.0108
G2 X56.5087 Y59.5272 Z-3.0333 I-0.0125 J0.0
G2 Y59.5488 Z-3.0667 I0.0063 J0.0108
G2 X56.5274 Y59.538 Z-3.1 I0.0062 J-0.0108
G2 X56.5087 Y59.5272 Z-3.1333 I-0.0125 J0.0
G2 Y59.5488 Z-3.1667 I0.0063 J0.0108
G2 X56.5274 Y59.538 Z-3.2 I0.0062 J-0.0108
G2 X56.5087 Y59.5272 I-0.0125 J0.0
G2 Y59.5488 I0.0063 J0.0108
G2 X56.5274 Y59.538 I0.0062 J-0.0108
G0 Z3.0
G0 X65.5316 Y53.19
G1 F1000.0 Z0.0
G2 F2000.0 X65.5129 Y53.1792 Z-0.0333 I-0.0125 J0.0
G2 Y53.2009 Z-0.0667 I0.0063 J0.0108
G2 X65.5316 Y53.19 Z-0.1 I0.0062 J-0.0108
G2 X65.5129 Y53.1792 Z-0.1333 I-0.0125 J0.0
G2 Y53.2009 Z-0.1667 I0.0063 J0.0108
G2 X65.5316 Y53.19 Z-0.2 I0.0062 J-0.0108
G2 X65.5129 Y53.1792 Z-0.2333 I-0.0125 J0.0
G2 Y53.2009 Z-0.2667 I0.0063 J0.0108
G2 X65.5316 Y53.19 Z-0.3 I0.0062 J-0.0108
G2 X65.5129 Y53.1792 Z-0.3333 I-0.0125 J0.0
G2 Y53.2009 Z-0.3667 I0.0063 J0.0108
G2 X65.5316 Y53.19 Z-0.4 I0.0062 J-0.0108
G2 X65.5129 Y53.1792 Z-0.4333 I-0.0125 J0.0
G2 Y53.2009 Z-0.4667 I0.0063 J0.0108
G2 X65.5316 Y53.19 Z-0.5 I0.0062 J-0.0108
G2 X65.5129 Y53.1792 Z-0.5333 I-0.0125 J0.0
G2 Y53.2009 Z-0.5667 I0.0063 J0.0108
G2 X65.5316 Y53.19 Z-0.6 I0.0062 J-0.0108
G2 X65.5129 Y53.1792 Z-0.6333 I-0.0125 J0.0
G2 Y53.2009 Z-0.6667 I0.0063 J0.0108
G2 X65.5316 Y53.19 Z-0.7 I0.0062 J-0.0108
G2 X65.5129 Y53.1792 Z-0.7333 I-0.0125 J0.0
G2 Y53.2009 Z-0.7667 I0.0063 J0.0108
G2 X65.5316 Y53.19 Z-0.8 I0.0062 J-0.0108
G2 X65.5129 Y53.1792 Z-0.8333 I-0.0125 J0.0
G2 Y53.2009 Z-0.8667 I0.0063 J0.0108
G2 X65.5316 Y53.19 Z-0.9 I0.0062 J-0.0108
G2 X65.5129 Y53.1792 Z-0.9333 I-0.0125 J0.0
G2 Y53.2009 Z-0.9667 I0.0063 J0.0108
G2 X65.5316 Y53.19 Z-1.0 I0.0062 J-0.0108
G2 X65.5129 Y53.1792 Z-1.0333 I-0.0125 J0.0
G2 Y53.2009 Z-1.0667 I0.0063 J0.0108
G2 X65.5316 Y53.19 Z-1.1 I0.0062 J-0.0108
G2 X65.5129 Y53.1792 Z-1.1333 I-0.0125 J0.0
G2 Y53.2009 Z-1.1667 I0.0063 J0.0108
G2 X65.5316 Y53.19 Z-1.2 I0.0062 J-0.0108
G2 X65.5129 Y53.1792 Z-1.2333 I-0.0125 J0.0
G2 Y53.2009 Z-1.2667 I0.0063 J0.0108
G2 X65.5316 Y53.19 Z-1.3 I0.0062 J-0.0108
G2 X65.5129 Y53.1792 Z-1.3333 I-0.0125 J0.0
G2 Y53.2009 Z-1.3667 I0.0063 J0.0108
G2 X65.5316 Y53.19 Z-1.4 I0.0062 J-0.0108
G2 X65.5129 Y53.1792 Z-1.4333 I-0.0125 J0.0
G2 Y53.2009 Z-1.4667 I0.0063 J0.0108
G2 X65.5316 Y53.19 Z-1.5 I0.0062 J-0.0108
G2 X65.5129 Y53.1792 Z-1.5333 I-0.0125 J0.0
G2 Y53.2009 Z-1.5667 I0.0063 J0.0108
G2 X65.5316 Y53.19 Z-1.6 I0.0062 J-0.0108
G2 X65.5129 Y53.1792 Z-1.6333 I-0.0125 J0.0
G2 Y53.2009 Z-1.6667 I0.0063 J0.0108
G2 X65.5316 Y53.19 Z-1.7 I0.0062 J-0.0108
G2 X65.5129 Y53.1792 Z-1.7333 I-0.0125 J0.0
G2 Y53.2009 Z-1.7667 I0.0063 J0.0108
G2 X65.5316 Y53.19 Z-1.8 I0.0062 J-0.0108
G2 X65.5129 Y53.1792 Z-1.8333 I-0.0125 J0.0
G2 Y53.2009 Z-1.8667 I0.0063 J0.0108
G2 X65.5316 Y53.19 Z-1.9 I0.0062 J-0.0108
G2 X65.5129 Y53.1792 Z-1.9333 I-0.0125 J0.0
G2 Y53.2009 Z-1.9667 I0.0063 J0.0108
G2 X65.5316 Y53.19 Z-2.0 I0.0062 J-0.0108
G2 X65.5129 Y53.1792 Z-2.0333 I-0.0125 J0.0
G2 Y53.2009 Z-2.0667 I0.0063 J0.0108
G2 X65.5316 Y53.19 Z-2.1 I0.0062 J-0.0108
G2 X65.5129 Y53.1792 Z-2.1333 I-0.0125 J0.0
G2 Y53.2009 Z-2.1667 I0.0063 J0.0108
G2 X65.5316 Y53.19 Z-2.2 I0.0062 J-0.0108
G2 X65.5129 Y53.1792 Z-2.2333 I-0.0125 J0.0
G2 Y53.2009 Z-2.2667 I0.0063 J0.0108
G2 X65.5316 Y53.19 Z-2.3 I0.0062 J-0.0108
G2 X65.5129 Y53.1792 Z-2.3333 I-0.0125 J0.0
G2 Y53.2009 Z-2.3667 I0.0063 J0.0108
G2 X65.5316 Y53.19 Z-2.4 I0.0062 J-0.0108
G2 X65.5129 Y53.1792 Z-2.4333 I-0.0125 J0.0
G2 Y53.2009 Z-2.4667 I0.0063 J0.0108
G2 X65.5316 Y53.19 Z-2.5 I0.0062 J-0.0108
G2 X65.5129 Y53.1792 Z-2.5333 I-0.0125 J0.0
G2 Y53.2009 Z-2.5667 I0.0063 J0.0108
G2 X65.5316 Y53.19 Z-2.6 I0.0062 J-0.0108
G2 X65.5129 Y53.1792 Z-2.6333 I-0.0125 J0.0
G2 Y53.2009 Z-2.6667 I0.0063 J0.0108
G2 X65.5316 Y53.19 Z-2.7 I0.0062 J-0.0108
G2 X65.5129 Y53.1792 Z-2.7333 I-0.0125 J0.0
G2 Y53.2009 Z-2.7667 I0.0063 J0.0108
G2 X65.5316 Y53.19 Z-2.8 I0.0062 J-0.0108
G2 X65.5129 Y53.1792 Z-2.8333 I-0.0125 J0.0
G2 Y53.2009 Z-2.8667 I0.0063 J0.0108
G2 X65.5316 Y53.19 Z-2.9 I0.0062 J-0.0108
G2 X65.5129 Y53.1792 Z-2.9333 I-0.0125 J0.0
G2 Y53.2009 Z-2.9667 I0.0063 J0.0108
G2 X65.5316 Y53.19 Z-3.0 I0.0062 J-0.0108
G2 X65.5129 Y53.1792 Z-3.0333 I-0.0125 J0.0
G2 Y53.2009 Z-3.0667 I0.0063 J0.0108
G2 X65.5316 Y53.19 Z-3.1 I0.0062 J-0.0108
G2 X65.5129 Y53.1792 Z-3.1333 I-0.0125 J0.0
G2 Y53.2009 Z-3.1667 I0.0063 J0.0108
G2 X65.5316 Y53.19 Z-3.2 I0.0062 J-0.0108
G2 X65.5129 Y53.1792 I-0.0125 J0.0
G2 Y53.2009 I0.0063 J0.0108
G2 X65.5316 Y53.19 I0.0062 J-0.0108
G0 Z3.0
G0 X74.7159 Y46.7971
G1 F1000.0 Z0.0
G2 F2000.0 X74.6971 Y46.7862 Z-0.0333 I-0.0125 J0.0
G2 Y46.8079 Z-0.0667 I0.0063 J0.0108
G2 X74.7159 Y46.7971 Z-0.1 I0.0062 J-0.0108
G2 X74.6971 Y46.7862 Z-0.1333 I-0.0125 J0.0
G2 Y46.8079 Z-0.1667 I0.0063 J0.0108
G2 X74.7159 Y46.7971 Z-0.2 I0.0062 J-0.0108
G2 X74.6971 Y46.7862 Z-0.2333 I-0.0125 J0.0
G2 Y46.8079 Z-0.2667 I0.0063 J0.0108
G2 X74.7159 Y46.7971 Z-0.3 I0.0062 J-0.0108
G2 X74.6971 Y46.7862 Z-0.3333 I-0.0125 J0.0
G2 Y46.8079 Z-0.3667 I0.0063 J0.0108
G2 X74.7159 Y46.7971 Z-0.4 I0.0062 J-0.0108
G2 X74.6971 Y46.7862 Z-0.4333 I-0.0125 J0.0
G2 Y46.8079 Z-0.4667 I0.0063 J0.0108
G2 X74.7159 Y46.7971 Z-0.5 I0.0062 J-0.0108
G2 X74.6971 Y46.7862 Z-0.5333 I-0.0125 J0.0
G2 Y46.8079 Z-0.5667 I0.0063 J0.0108
G2 X74.7159 Y46.7971 Z-0.6 I0.0062 J-0.0108
G2 X74.6971 Y46.7862 Z-0.6333 I-0.0125 J0.0
G2 Y46.8079 Z-0.6667 I0.0063 J0.0108
G2 X74.7159 Y46.7971 Z-0.7 I0.0062 J-0.0108
G2 X74.6971 Y46.7862 Z-0.7333 I-0.0125 J0.0
G2 Y46.8079 Z-0.7667 I0.0063 J0.0108
G2 X74.7159 Y46.7971 Z-0.8 I0.0062 J-0.0108
G2 X74.6971 Y46.7862 Z-0.8333 I-0.0125 J0.0
G2 Y46.8079 Z-0.8667 I0.0063 J0.0108
G2 X74.7159 Y46.7971 Z-0.9 I0.0062 J-0.0108
G2 X74.6971 Y46.7862 Z-0.9333 I-0.0125 J0.0
G2 Y46.8079 Z-0.9667 I0.0063 J0.0108
G2 X74.7159 Y46.7971 Z-1.0 I0.0062 J-0.0108
G2 X74.6971 Y46.7862 Z-1.0333 I-0.0125 J0.0
G2 Y46.8079 Z-1.0667 I0.0063 J0.0108
G2 X74.7159 Y46.7971 Z-1.1 I0.0062 J-0.0108
G2 X74.6971 Y46.7862 Z-1.1333 I-0.0125 J0.0
G2 Y46.8079 Z-1.1667 I0.0063 J0.0108
G2 X74.7159 Y46.7971 Z-1.2 I0.0062 J-0.0108
G2 X74.6971 Y46.7862 Z-1.2333 I-0.0125 J0.0
G2 Y46.8079 Z-1.2667 I0.0063 J0.0108
G2 X74.7159 Y46.7971 Z-1.3 I0.0062 J-0.0108
G2 X74.6971 Y46.7862 Z-1.3333 I-0.0125 J0.0
G2 Y46.8079 Z-1.3667 I0.0063 J0.0108
G2 X74.7159 Y46.7971 Z-1.4 I0.0062 J-0.0108
G2 X74.6971 Y46.7862 Z-1.4333 I-0.0125 J0.0
G2 Y46.8079 Z-1.4667 I0.0063 J0.0108
G2 X74.7159 Y46.7971 Z-1.5 I0.0062 J-0.0108
G2 X74.6971 Y46.7862 Z-1.5333 I-0.0125 J0.0
G2 Y46.8079 Z-1.5667 I0.0063 J0.0108
G2 X74.7159 Y46.7971 Z-1.6 I0.0062 J-0.0108
G2 X74.6971 Y46.7862 Z-1.6333 I-0.0125 J0.0
G2 Y46.8079 Z-1.6667 I0.0063 J0.0108
G2 X74.7159 Y46.7971 Z-1.7 I0.0062 J-0.0108
G2 X74.6971 Y46.7862 Z-1.7333 I-0.0125 J0.0
G2 Y46.8079 Z-1.7667 I0.0063 J0.0108
G2 X74.7159 Y46.7971 Z-1.8 I0.0062 J-0.0108
G2 X74.6971 Y46.7862 Z-1.8333 I-0.0125 J0.0
G2 Y46.8079 Z-1.8667 I0.0063 J0.0108
G2 X74.7159 Y46.7971 Z-1.9 I0.0062 J-0.0108
G2 X74.6971 Y46.7862 Z-1.9333 I-0.0125 J0.0
G2 Y46.8079 Z-1.9667 I0.0063 J0.0108
G2 X74.7159 Y46.7971 Z-2.0 I0.0062 J-0.0108
G2 X74.6971 Y46.7862 Z-2.0333 I-0.0125 J0.0
G2 Y46.8079 Z-2.0667 I0.0063 J0.0108
G2 X74.7159 Y46.7971 Z-2.1 I0.0062 J-0.0108
G2 X74.6971 Y46.7862 Z-2.1333 I-0.0125 J0.0
G2 Y46.8079 Z-2.1667 I0.0063 J0.0108
G2 X74.7159 Y46.7971 Z-2.2 I0.0062 J-0.0108
G2 X74.6971 Y46.7862 Z-2.2333 I-0.0125 J0.0
G2 Y46.8079 Z-2.2667 I0.0063 J0.0108
G2 X74.7159 Y46.7971 Z-2.3 I0.0062 J-0.0108
G2 X74.6971 Y46.7862 Z-2.3333 I-0.0125 J0.0
G2 Y46.8079 Z-2.3667 I0.0063 J0.0108
G2 X74.7159 Y46.7971 Z-2.4 I0.0062 J-0.0108
G2 X74.6971 Y46.7862 Z-2.4333 I-0.0125 J0.0
G2 Y46.8079 Z-2.4667 I0.0063 J0.0108
G2 X74.7159 Y46.7971 Z-2.5 I0.0062 J-0.0108
G2 X74.6971 Y46.7862 Z-2.5333 I-0.0125 J0.0
G2 Y46.8079 Z-2.5667 I0.0063 J0.0108
G2 X74.7159 Y46.7971 Z-2.6 I0.0062 J-0.0108
G2 X74.6971 Y46.7862 Z-2.6333 I-0.0125 J0.0
G2 Y46.8079 Z-2.6667 I0.0063 J0.0108
G2 X74.7159 Y46.7971 Z-2.7 I0.0062 J-0.0108
G2 X74.6971 Y46.7862 Z-2.7333 I-0.0125 J0.0
G2 Y46.8079 Z-2.7667 I0.0063 J0.0108
G2 X74.7159 Y46.7971 Z-2.8 I0.0062 J-0.0108
G2 X74.6971 Y46.7862 Z-2.8333 I-0.0125 J0.0
G2 Y46.8079 Z-2.8667 I0.0063 J0.0108
G2 X74.7159 Y46.7971 Z-2.9 I0.0062 J-0.0108
G2 X74.6971 Y46.7862 Z-2.9333 I-0.0125 J0.0
G2 Y46.8079 Z-2.9667 I0.0063 J0.0108
G2 X74.7159 Y46.7971 Z-3.0 I0.0062 J-0.0108
G2 X74.6971 Y46.7862 Z-3.0333 I-0.0125 J0.0
G2 Y46.8079 Z-3.0667 I0.0063 J0.0108
G2 X74.7159 Y46.7971 Z-3.1 I0.0062 J-0.0108
G2 X74.6971 Y46.7862 Z-3.1333 I-0.0125 J0.0
G2 Y46.8079 Z-3.1667 I0.0063 J0.0108
G2 X74.7159 Y46.7971 Z-3.2 I0.0062 J-0.0108
G2 X74.6971 Y46.7862 I-0.0125 J0.0
G2 Y46.8079 I0.0063 J0.0108
G2 X74.7159 Y46.7971 I0.0062 J-0.0108
G0 Z3.0
G0 X65.5163 Y30.6258
G1 F1000.0 Z0.0
G2 F2000.0 X65.4975 Y30.615 Z-0.0333 I-0.0125 J0.0
G2 Y30.6367 Z-0.0667 I0.0062 J0.0108
G2 X65.5163 Y30.6258 Z-0.1 I0.0062 J-0.0108
G2 X65.4975 Y30.615 Z-0.1333 I-0.0125 J0.0
G2 Y30.6367 Z-0.1667 I0.0062 J0.0108
G2 X65.5163 Y30.6258 Z-0.2 I0.0062 J-0.0108
G2 X65.4975 Y30.615 Z-0.2333 I-0.0125 J0.0
G2 Y30.6367 Z-0.2667 I0.0062 J0.0108
G2 X65.5163 Y30.6258 Z-0.3 I0.0062 J-0.0108
G2 X65.4975 Y30.615 Z-0.3333 I-0.0125 J0.0
G2 Y30.6367 Z-0.3667 I0.0062 J0.0108
G2 X65.5163 Y30.6258 Z-0.4 I0.0062 J-0.0108
G2 X65.4975 Y30.615 Z-0.4333 I-0.0125 J0.0
G2 Y30.6367 Z-0.4667 I0.0062 J0.0108
G2 X65.5163 Y30.6258 Z-0.5 I0.0062 J-0.0108
G2 X65.4975 Y30.615 Z-0.5333 I-0.0125 J0.0
G2 Y30.6367 Z-0.5667 I0.0062 J0.0108
G2 X65.5163 Y30.6258 Z-0.6 I0.0062 J-0.0108
G2 X65.4975 Y30.615 Z-0.6333 I-0.0125 J0.0
G2 Y30.6367 Z-0.6667 I0.0062 J0.0108
G2 X65.5163 Y30.6258 Z-0.7 I0.0062 J-0.0108
G2 X65.4975 Y30.615 Z-0.7333 I-0.0125 J0.0
G2 Y30.6367 Z-0.7667 I0.0062 J0.0108
G2 X65.5163 Y30.6258 Z-0.8 I0.0062 J-0.0108
G2 X65.4975 Y30.615 Z-0.8333 I-0.0125 J0.0
G2 Y30.6367 Z-0.8667 I0.0062 J0.0108
G2 X65.5163 Y30.6258 Z-0.9 I0.0062 J-0.0108
G2 X65.4975 Y30.615 Z-0.9333 I-0.0125 J0.0
G2 Y30.6367 Z-0.9667 I0.0062 J0.0108
G2 X65.5163 Y30.6258 Z-1.0 I0.0062 J-0.0108
G2 X65.4975 Y30.615 Z-1.0333 I-0.0125 J0.0
G2 Y30.6367 Z-1.0667 I0.0062 J0.0108
G2 X65.5163 Y30.6258 Z-1.1 I0.0062 J-0.0108
G2 X65.4975 Y30.615 Z-1.1333 I-0.0125 J0.0
G2 Y30.6367 Z-1.1667 I0.0062 J0.0108
G2 X65.5163 Y30.6258 Z-1.2 I0.0062 J-0.0108
G2 X65.4975 Y30.615 Z-1.2333 I-0.0125 J0.0
G2 Y30.6367 Z-1.2667 I0.0062 J0.0108
G2 X65.5163 Y30.6258 Z-1.3 I0.0062 J-0.0108
G2 X65.4975 Y30.615 Z-1.3333 I-0.0125 J0.0
G2 Y30.6367 Z-1.3667 I0.0062 J0.0108
G2 X65.5163 Y30.6258 Z-1.4 I0.0062 J-0.0108
G2 X65.4975 Y30.615 Z-1.4333 I-0.0125 J0.0
G2 Y30.6367 Z-1.4667 I0.0062 J0.0108
G2 X65.5163 Y30.6258 Z-1.5 I0.0062 J-0.0108
G2 X65.4975 Y30.615 Z-1.5333 I-0.0125 J0.0
G2 Y30.6367 Z-1.5667 I0.0062 J0.0108
G2 X65.5163 Y30.6258 Z-1.6 I0.0062 J-0.0108
G2 X65.4975 Y30.615 Z-1.6333 I-0.0125 J0.0
G2 Y30.6367 Z-1.6667 I0.0062 J0.0108
G2 X65.5163 Y30.6258 Z-1.7 I0.0062 J-0.0108
G2 X65.4975 Y30.615 Z-1.7333 I-0.0125 J0.0
G2 Y30.6367 Z-1.7667 I0.0062 J0.0108
G2 X65.5163 Y30.6258 Z-1.8 I0.0062 J-0.0108
G2 X65.4975 Y30.615 Z-1.8333 I-0.0125 J0.0
G2 Y30.6367 Z-1.8667 I0.0062 J0.0108
G2 X65.5163 Y30.6258 Z-1.9 I0.0062 J-0.0108
G2 X65.4975 Y30.615 Z-1.9333 I-0.0125 J0.0
G2 Y30.6367 Z-1.9667 I0.0062 J0.0108
G2 X65.5163 Y30.6258 Z-2.0 I0.0062 J-0.0108
G2 X65.4975 Y30.615 Z-2.0333 I-0.0125 J0.0
G2 Y30.6367 Z-2.0667 I0.0062 J0.0108
G2 X65.5163 Y30.6258 Z-2.1 I0.0062 J-0.0108
G2 X65.4975 Y30.615 Z-2.1333 I-0.0125 J0.0
G2 Y30.6367 Z-2.1667 I0.0062 J0.0108
G2 X65.5163 Y30.6258 Z-2.2 I0.0062 J-0.0108
G2 X65.4975 Y30.615 Z-2.2333 I-0.0125 J0.0
G2 Y30.6367 Z-2.2667 I0.0062 J0.0108
G2 X65.5163 Y30.6258 Z-2.3 I0.0062 J-0.0108
G2 X65.4975 Y30.615 Z-2.3333 I-0.0125 J0.0
G2 Y30.6367 Z-2.3667 I0.0062 J0.0108
G2 X65.5163 Y30.6258 Z-2.4 I0.0062 J-0.0108
G2 X65.4975 Y30.615 Z-2.4333 I-0.0125 J0.0
G2 Y30.6367 Z-2.4667 I0.0062 J0.0108
G2 X65.5163 Y30.6258 Z-2.5 I0.0062 J-0.0108
G2 X65.4975 Y30.615 Z-2.5333 I-0.0125 J0.0
G2 Y30.6367 Z-2.5667 I0.0062 J0.0108
G2 X65.5163 Y30.6258 Z-2.6 I0.0062 J-0.0108
G2 X65.4975 Y30.615 Z-2.6333 I-0.0125 J0.0
G2 Y30.6367 Z-2.6667 I0.0062 J0.0108
G2 X65.5163 Y30.6258 Z-2.7 I0.0062 J-0.0108
G2 X65.4975 Y30.615 Z-2.7333 I-0.0125 J0.0
G2 Y30.6367 Z-2.7667 I0.0063 J0.0108
G2 X65.5163 Y30.6258 Z-2.8 I0.0062 J-0.0108
G2 X65.4975 Y30.615 Z-2.8333 I-0.0125 J0.0
G2 Y30.6367 Z-2.8667 I0.0063 J0.0108
G2 X65.5163 Y30.6258 Z-2.9 I0.0062 J-0.0108
G2 X65.4975 Y30.615 Z-2.9333 I-0.0125 J0.0
G2 Y30.6367 Z-2.9667 I0.0063 J0.0108
G2 X65.5163 Y30.6258 Z-3.0 I0.0062 J-0.0108
G2 X65.4975 Y30.615 Z-3.0333 I-0.0125 J0.0
G2 Y30.6367 Z-3.0667 I0.0063 J0.0108
G2 X65.5163 Y30.6258 Z-3.1 I0.0062 J-0.0108
G2 X65.4975 Y30.615 Z-3.1333 I-0.0125 J0.0
G2 Y30.6367 Z-3.1667 I0.0063 J0.0108
G2 X65.5163 Y30.6258 Z-3.2 I0.0062 J-0.0108
G2 X65.4975 Y30.615 I-0.0125 J0.0
G2 Y30.6367 I0.0063 J0.0108
G2 X65.5163 Y30.6258 I0.0062 J-0.0108
G0 Z3.0
G0 X56.52 Y36.9537
G1 F1000.0 Z0.0
G2 F2000.0 X56.5012 Y36.9429 Z-0.0333 I-0.0125 J0.0
G2 Y36.9645 Z-0.0667 I0.0063 J0.0108
G2 X56.52 Y36.9537 Z-0.1 I0.0063 J-0.0108
G2 X56.5012 Y36.9429 Z-0.1333 I-0.0125 J0.0
G2 Y36.9645 Z-0.1667 I0.0063 J0.0108
G2 X56.52 Y36.9537 Z-0.2 I0.0063 J-0.0108
G2 X56.5012 Y36.9429 Z-0.2333 I-0.0125 J0.0
G2 Y36.9645 Z-0.2667 I0.0063 J0.0108
G2 X56.52 Y36.9537 Z-0.3 I0.0063 J-0.0108
G2 X56.5012 Y36.9429 Z-0.3333 I-0.0125 J0.0
G2 Y36.9645 Z-0.3667 I0.0063 J0.0108
G2 X56.52 Y36.9537 Z-0.4 I0.0063 J-0.0108
G2 X56.5012 Y36.9429 Z-0.4333 I-0.0125 J0.0
G2 Y36.9645 Z-0.4667 I0.0063 J0.0108
G2 X56.52 Y36.9537 Z-0.5 I0.0063 J-0.0108
G2 X56.5012 Y36.9429 Z-0.5333 I-0.0125 J0.0
G2 Y36.9645 Z-0.5667 I0.0063 J0.0108
G2 X56.52 Y36.9537 Z-0.6 I0.0063 J-0.0108
G2 X56.5012 Y36.9429 Z-0.6333 I-0.0125 J0.0
G2 Y36.9645 Z-0.6667 I0.0063 J0.0108
G2 X56.52 Y36.9537 Z-0.7 I0.0063 J-0.0108
G2 X56.5012 Y36.9429 Z-0.7333 I-0.0125 J0.0
G2 Y36.9645 Z-0.7667 I0.0063 J0.0108
G2 X56.52 Y36.9537 Z-0.8 I0.0063 J-0.0108
G2 X56.5012 Y36.9429 Z-0.8333 I-0.0125 J0.0
G2 Y36.9645 Z-0.8667 I0.0063 J0.0108
G2 X56.52 Y36.9537 Z-0.9 I0.0063 J-0.0108
G2 X56.5012 Y36.9429 Z-0.9333 I-0.0125 J0.0
G2 Y36.9645 Z-0.9667 I0.0063 J0.0108
G2 X56.52 Y36.9537 Z-1.0 I0.0063 J-0.0108
G2 X56.5012 Y36.9429 Z-1.0333 I-0.0125 J0.0
G2 Y36.9645 Z-1.0667 I0.0063 J0.0108
G2 X56.52 Y36.9537 Z-1.1 I0.0063 J-0.0108
G2 X56.5012 Y36.9429 Z-1.1333 I-0.0125 J0.0
G2 Y36.9645 Z-1.1667 I0.0063 J0.0108
G2 X56.52 Y36.9537 Z-1.2 I0.0063 J-0.0108
G2 X56.5012 Y36.9429 Z-1.2333 I-0.0125 J0.0
G2 Y36.9645 Z-1.2667 I0.0063 J0.0108
G2 X56.52 Y36.9537 Z-1.3 I0.0063 J-0.0108
G2 X56.5012 Y36.9429 Z-1.3333 I-0.0125 J0.0
G2 Y36.9645 Z-1.3667 I0.0063 J0.0108
G2 X56.52 Y36.9537 Z-1.4 I0.0063 J-0.0108
G2 X56.5012 Y36.9429 Z-1.4333 I-0.0125 J0.0
G2 Y36.9645 Z-1.4667 I0.0063 J0.0108
G2 X56.52 Y36.9537 Z-1.5 I0.0063 J-0.0108
G2 X56.5012 Y36.9429 Z-1.5333 I-0.0125 J0.0
G2 Y36.9645 Z-1.5667 I0.0063 J0.0108
G2 X56.52 Y36.9537 Z-1.6 I0.0063 J-0.0108
G2 X56.5012 Y36.9429 Z-1.6333 I-0.0125 J0.0
G2 Y36.9645 Z-1.6667 I0.0063 J0.0108
G2 X56.52 Y36.9537 Z-1.7 I0.0063 J-0.0108
G2 X56.5012 Y36.9429 Z-1.7333 I-0.0125 J0.0
G2 Y36.9645 Z-1.7667 I0.0063 J0.0108
G2 X56.52 Y36.9537 Z-1.8 I0.0063 J-0.0108
G2 X56.5012 Y36.9429 Z-1.8333 I-0.0125 J0.0
G2 Y36.9645 Z-1.8667 I0.0063 J0.0108
G2 X56.52 Y36.9537 Z-1.9 I0.0063 J-0.0108
G2 X56.5012 Y36.9429 Z-1.9333 I-0.0125 J0.0
G2 Y36.9645 Z-1.9667 I0.0063 J0.0108
G2 X56.52 Y36.9537 Z-2.0 I0.0063 J-0.0108
G2 X56.5012 Y36.9429 Z-2.0333 I-0.0125 J0.0
G2 Y36.9645 Z-2.0667 I0.0063 J0.0108
G2 X56.52 Y36.9537 Z-2.1 I0.0063 J-0.0108
G2 X56.5012 Y36.9429 Z-2.1333 I-0.0125 J0.0
G2 Y36.9645 Z-2.1667 I0.0063 J0.0108
G2 X56.52 Y36.9537 Z-2.2 I0.0063 J-0.0108
G2 X56.5012 Y36.9429 Z-2.2333 I-0.0125 J0.0
G2 Y36.9645 Z-2.2667 I0.0063 J0.0108
G2 X56.52 Y36.9537 Z-2.3 I0.0063 J-0.0108
G2 X56.5012 Y36.9429 Z-2.3333 I-0.0125 J0.0
G2 Y36.9645 Z-2.3667 I0.0063 J0.0108
G2 X56.52 Y36.9537 Z-2.4 I0.0063 J-0.0108
G2 X56.5012 Y36.9429 Z-2.4333 I-0.0125 J0.0
G2 Y36.9645 Z-2.4667 I0.0063 J0.0108
G2 X56.52 Y36.9537 Z-2.5 I0.0063 J-0.0108
G2 X56.5012 Y36.9429 Z-2.5333 I-0.0125 J0.0
G2 Y36.9645 Z-2.5667 I0.0063 J0.0108
G2 X56.52 Y36.9537 Z-2.6 I0.0063 J-0.0108
G2 X56.5012 Y36.9429 Z-2.6333 I-0.0125 J0.0
G2 Y36.9645 Z-2.6667 I0.0063 J0.0108
G2 X56.52 Y36.9537 Z-2.7 I0.0063 J-0.0108
G2 X56.5012 Y36.9429 Z-2.7333 I-0.0125 J0.0
G2 Y36.9645 Z-2.7667 I0.0063 J0.0108
G2 X56.52 Y36.9537 Z-2.8 I0.0063 J-0.0108
G2 X56.5012 Y36.9429 Z-2.8333 I-0.0125 J0.0
G2 Y36.9645 Z-2.8667 I0.0063 J0.0108
G2 X56.52 Y36.9537 Z-2.9 I0.0063 J-0.0108
G2 X56.5012 Y36.9429 Z-2.9333 I-0.0125 J0.0
G2 Y36.9645 Z-2.9667 I0.0063 J0.0108
G2 X56.52 Y36.9537 Z-3.0 I0.0062 J-0.0108
G2 X56.5012 Y36.9429 Z-3.0333 I-0.0125 J0.0
G2 Y36.9645 Z-3.0667 I0.0063 J0.0108
G2 X56.52 Y36.9537 Z-3.1 I0.0062 J-0.0108
G2 X56.5012 Y36.9429 Z-3.1333 I-0.0125 J0.0
G2 Y36.9645 Z-3.1667 I0.0063 J0.0108
G2 X56.52 Y36.9537 Z-3.2 I0.0062 J-0.0108
G2 X56.5012 Y36.9429 I-0.0125 J0.0
G2 Y36.9645 I0.0063 J0.0108
G2 X56.52 Y36.9537 I0.0062 J-0.0108
G0 Z3.0
G0 X74.7158 Y24.2217
G1 F1000.0 Z0.0
G2 F2000.0 X74.6971 Y24.2109 Z-0.0333 I-0.0125 J0.0
G2 Y24.2325 Z-0.0667 I0.0062 J0.0108
G2 X74.7158 Y24.2217 Z-0.1 I0.0062 J-0.0108
G2 X74.6971 Y24.2109 Z-0.1333 I-0.0125 J0.0
G2 Y24.2325 Z-0.1667 I0.0062 J0.0108
G2 X74.7158 Y24.2217 Z-0.2 I0.0062 J-0.0108
G2 X74.6971 Y24.2109 Z-0.2333 I-0.0125 J0.0
G2 Y24.2325 Z-0.2667 I0.0062 J0.0108
G2 X74.7158 Y24.2217 Z-0.3 I0.0062 J-0.0108
G2 X74.6971 Y24.2109 Z-0.3333 I-0.0125 J0.0
G2 Y24.2325 Z-0.3667 I0.0062 J0.0108
G2 X74.7158 Y24.2217 Z-0.4 I0.0062 J-0.0108
G2 X74.6971 Y24.2109 Z-0.4333 I-0.0125 J0.0
G2 Y24.2325 Z-0.4667 I0.0062 J0.0108
G2 X74.7158 Y24.2217 Z-0.5 I0.0062 J-0.0108
G2 X74.6971 Y24.2109 Z-0.5333 I-0.0125 J0.0
G2 Y24.2325 Z-0.5667 I0.0062 J0.0108
G2 X74.7158 Y24.2217 Z-0.6 I0.0062 J-0.0108
G2 X74.6971 Y24.2109 Z-0.6333 I-0.0125 J0.0
G2 Y24.2325 Z-0.6667 I0.0062 J0.0108
G2 X74.7158 Y24.2217 Z-0.7 I0.0062 J-0.0108
G2 X74.6971 Y24.2109 Z-0.7333 I-0.0125 J0.0
G2 Y24.2325 Z-0.7667 I0.0062 J0.0108
G2 X74.7158 Y24.2217 Z-0.8 I0.0062 J-0.0108
G2 X74.6971 Y24.2109 Z-0.8333 I-0.0125 J0.0
G2 Y24.2325 Z-0.8667 I0.0062 J0.0108
G2 X74.7158 Y24.2217 Z-0.9 I0.0062 J-0.0108
G2 X74.6971 Y24.2109 Z-0.9333 I-0.0125 J0.0
G2 Y24.2325 Z-0.9667 I0.0062 J0.0108
G2 X74.7158 Y24.2217 Z-1.0 I0.0062 J-0.0108
G2 X74.6971 Y24.2109 Z-1.0333 I-0.0125 J0.0
G2 Y24.2325 Z-1.0667 I0.0062 J0.0108
G2 X74.7158 Y24.2217 Z-1.1 I0.0062 J-0.0108
G2 X74.6971 Y24.2109 Z-1.1333 I-0.0125 J0.0
G2 Y24.2325 Z-1.1667 I0.0062 J0.0108
G2 X74.7158 Y24.2217 Z-1.2 I0.0062 J-0.0108
G2 X74.6971 Y24.2109 Z-1.2333 I-0.0125 J0.0
G2 Y24.2325 Z-1.2667 I0.0062 J0.0108
G2 X74.7158 Y24.2217 Z-1.3 I0.0062 J-0.0108
G2 X74.6971 Y24.2109 Z-1.3333 I-0.0125 J0.0
G2 Y24.2325 Z-1.3667 I0.0062 J0.0108
G2 X74.7158 Y24.2217 Z-1.4 I0.0062 J-0.0108
G2 X74.6971 Y24.2109 Z-1.4333 I-0.0125 J0.0
G2 Y24.2325 Z-1.4667 I0.0062 J0.0108
G2 X74.7158 Y24.2217 Z-1.5 I0.0062 J-0.0108
G2 X74.6971 Y24.2109 Z-1.5333 I-0.0125 J0.0
G2 Y24.2325 Z-1.5667 I0.0062 J0.0108
G2 X74.7158 Y24.2217 Z-1.6 I0.0062 J-0.0108
G2 X74.6971 Y24.2109 Z-1.6333 I-0.0125 J0.0
G2 Y24.2325 Z-1.6667 I0.0062 J0.0108
G2 X74.7158 Y24.2217 Z-1.7 I0.0062 J-0.0108
G2 X74.6971 Y24.2109 Z-1.7333 I-0.0125 J0.0
G2 Y24.2325 Z-1.7667 I0.0062 J0.0108
G2 X74.7158 Y24.2217 Z-1.8 I0.0062 J-0.0108
G2 X74.6971 Y24.2109 Z-1.8333 I-0.0125 J0.0
G2 Y24.2325 Z-1.8667 I0.0062 J0.0108
G2 X74.7158 Y24.2217 Z-1.9 I0.0062 J-0.0108
G2 X74.6971 Y24.2109 Z-1.9333 I-0.0125 J0.0
G2 Y24.2325 Z-1.9667 I0.0062 J0.0108
G2 X74.7158 Y24.2217 Z-2.0 I0.0062 J-0.0108
G2 X74.6971 Y24.2109 Z-2.0333 I-0.0125 J0.0
G2 Y24.2325 Z-2.0667 I0.0062 J0.0108
G2 X74.7158 Y24.2217 Z-2.1 I0.0062 J-0.0108
G2 X74.6971 Y24.2109 Z-2.1333 I-0.0125 J0.0
G2 Y24.2325 Z-2.1667 I0.0062 J0.0108
G2 X74.7158 Y24.2217 Z-2.2 I0.0062 J-0.0108
G2 X74.6971 Y24.2109 Z-2.2333 I-0.0125 J0.0
G2 Y24.2325 Z-2.2667 I0.0062 J0.0108
G2 X74.7158 Y24.2217 Z-2.3 I0.0062 J-0.0108
G2 X74.6971 Y24.2109 Z-2.3333 I-0.0125 J0.0
G2 Y24.2325 Z-2.3667 I0.0062 J0.0108
G2 X74.7158 Y24.2217 Z-2.4 I0.0062 J-0.0108
G2 X74.6971 Y24.2109 Z-2.4333 I-0.0125 J0.0
G2 Y24.2325 Z-2.4667 I0.0062 J0.0108
G2 X74.7158 Y24.2217 Z-2.5 I0.0062 J-0.0108
G2 X74.6971 Y24.2109 Z-2.5333 I-0.0125 J0.0
G2 Y24.2325 Z-2.5667 I0.0062 J0.0108
G2 X74.7158 Y24.2217 Z-2.6 I0.0062 J-0.0108
G2 X74.6971 Y24.2109 Z-2.6333 I-0.0125 J0.0
G2 Y24.2325 Z-2.6667 I0.0062 J0.0108
G2 X74.7158 Y24.2217 Z-2.7 I0.0062 J-0.0108
G2 X74.6971 Y24.2109 Z-2.7333 I-0.0125 J0.0
G2 Y24.2325 Z-2.7667 I0.0063 J0.0108
G2 X74.7158 Y24.2217 Z-2.8 I0.0062 J-0.0108
G2 X74.6971 Y24.2109 Z-2.8333 I-0.0125 J0.0
G2 Y24.2325 Z-2.8667 I0.0063 J0.0108
G2 X74.7158 Y24.2217 Z-2.9 I0.0062 J-0.0108
G2 X74.6971 Y24.2109 Z-2.9333 I-0.0125 J0.0
G2 Y24.2325 Z-2.9667 I0.0063 J0.0108
G2 X74.7158 Y24.2217 Z-3.0 I0.0062 J-0.0108
G2 X74.6971 Y24.2109 Z-3.0333 I-0.0125 J0.0
G2 Y24.2325 Z-3.0667 I0.0063 J0.0108
G2 X74.7158 Y24.2217 Z-3.1 I0.0062 J-0.0108
G2 X74.6971 Y24.2109 Z-3.1333 I-0.0125 J0.0
G2 Y24.2325 Z-3.1667 I0.0063 J0.0108
G2 X74.7158 Y24.2217 Z-3.2 I0.0062 J-0.0108
G2 X74.6971 Y24.2109 I-0.0125 J0.0
G2 Y24.2325 I0.0063 J0.0108
G2 X74.7158 Y24.2217 I0.0062 J-0.0108
G0 Z3.0
G0 X74.7159 Y69.3075
G1 F1000.0 Z0.0
G2 F2000.0 X74.6971 Y69.2967 Z-0.0333 I-0.0125 J0.0
G2 Y69.3184 Z-0.0667 I0.0062 J0.0108
G2 X74.7159 Y69.3075 Z-0.1 I0.0062 J-0.0108
G2 X74.6971 Y69.2967 Z-0.1333 I-0.0125 J0.0
G2 Y69.3184 Z-0.1667 I0.0062 J0.0108
G2 X74.7159 Y69.3075 Z-0.2 I0.0062 J-0.0108
G2 X74.6971 Y69.2967 Z-0.2333 I-0.0125 J0.0
G2 Y69.3184 Z-0.2667 I0.0062 J0.0108
G2 X74.7159 Y69.3075 Z-0.3 I0.0062 J-0.0108
G2 X74.6971 Y69.2967 Z-0.3333 I-0.0125 J0.0
G2 Y69.3184 Z-0.3667 I0.0062 J0.0108
G2 X74.7159 Y69.3075 Z-0.4 I0.0062 J-0.0108
G2 X74.6971 Y69.2967 Z-0.4333 I-0.0125 J0.0
G2 Y69.3184 Z-0.4667 I0.0062 J0.0108
G2 X74.7159 Y69.3075 Z-0.5 I0.0062 J-0.0108
G2 X74.6971 Y69.2967 Z-0.5333 I-0.0125 J0.0
G2 Y69.3184 Z-0.5667 I0.0062 J0.0108
G2 X74.7159 Y69.3075 Z-0.6 I0.0062 J-0.0108
G2 X74.6971 Y69.2967 Z-0.6333 I-0.0125 J0.0
G2 Y69.3184 Z-0.6667 I0.0062 J0.0108
G2 X74.7159 Y69.3075 Z-0.7 I0.0062 J-0.0108
G2 X74.6971 Y69.2967 Z-0.7333 I-0.0125 J0.0
G2 Y69.3184 Z-0.7667 I0.0062 J0.0108
G2 X74.7159 Y69.3075 Z-0.8 I0.0062 J-0.0108
G2 X74.6971 Y69.2967 Z-0.8333 I-0.0125 J0.0
G2 Y69.3184 Z-0.8667 I0.0062 J0.0108
G2 X74.7159 Y69.3075 Z-0.9 I0.0062 J-0.0108
G2 X74.6971 Y69.2967 Z-0.9333 I-0.0125 J0.0
G2 Y69.3184 Z-0.9667 I0.0062 J0.0108
G2 X74.7159 Y69.3075 Z-1.0 I0.0062 J-0.0108
G2 X74.6971 Y69.2967 Z-1.0333 I-0.0125 J0.0
G2 Y69.3184 Z-1.0667 I0.0062 J0.0108
G2 X74.7159 Y69.3075 Z-1.1 I0.0062 J-0.0108
G2 X74.6971 Y69.2967 Z-1.1333 I-0.0125 J0.0
G2 Y69.3184 Z-1.1667 I0.0062 J0.0108
G2 X74.7159 Y69.3075 Z-1.2 I0.0062 J-0.0108
G2 X74.6971 Y69.2967 Z-1.2333 I-0.0125 J0.0
G2 Y69.3184 Z-1.2667 I0.0062 J0.0108
G2 X74.7159 Y69.3075 Z-1.3 I0.0062 J-0.0108
G2 X74.6971 Y69.2967 Z-1.3333 I-0.0125 J0.0
G2 Y69.3184 Z-1.3667 I0.0062 J0.0108
G2 X74.7159 Y69.3075 Z-1.4 I0.0062 J-0.0108
G2 X74.6971 Y69.2967 Z-1.4333 I-0.0125 J0.0
G2 Y69.3184 Z-1.4667 I0.0062 J0.0108
G2 X74.7159 Y69.3075 Z-1.5 I0.0062 J-0.0108
G2 X74.6971 Y69.2967 Z-1.5333 I-0.0125 J0.0
G2 Y69.3184 Z-1.5667 I0.0062 J0.0108
G2 X74.7159 Y69.3075 Z-1.6 I0.0062 J-0.0108
G2 X74.6971 Y69.2967 Z-1.6333 I-0.0125 J0.0
G2 Y69.3184 Z-1.6667 I0.0062 J0.0108
G2 X74.7159 Y69.3075 Z-1.7 I0.0062 J-0.0108
G2 X74.6971 Y69.2967 Z-1.7333 I-0.0125 J0.0
G2 Y69.3184 Z-1.7667 I0.0062 J0.0108
G2 X74.7159 Y69.3075 Z-1.8 I0.0062 J-0.0108
G2 X74.6971 Y69.2967 Z-1.8333 I-0.0125 J0.0
G2 Y69.3184 Z-1.8667 I0.0062 J0.0108
G2 X74.7159 Y69.3075 Z-1.9 I0.0062 J-0.0108
G2 X74.6971 Y69.2967 Z-1.9333 I-0.0125 J0.0
G2 Y69.3184 Z-1.9667 I0.0062 J0.0108
G2 X74.7159 Y69.3075 Z-2.0 I0.0062 J-0.0108
G2 X74.6971 Y69.2967 Z-2.0333 I-0.0125 J0.0
G2 Y69.3184 Z-2.0667 I0.0062 J0.0108
G2 X74.7159 Y69.3075 Z-2.1 I0.0062 J-0.0108
G2 X74.6971 Y69.2967 Z-2.1333 I-0.0125 J0.0
G2 Y69.3184 Z-2.1667 I0.0062 J0.0108
G2 X74.7159 Y69.3075 Z-2.2 I0.0062 J-0.0108
G2 X74.6971 Y69.2967 Z-2.2333 I-0.0125 J0.0
G2 Y69.3184 Z-2.2667 I0.0062 J0.0108
G2 X74.7159 Y69.3075 Z-2.3 I0.0062 J-0.0108
G2 X74.6971 Y69.2967 Z-2.3333 I-0.0125 J0.0
G2 Y69.3184 Z-2.3667 I0.0062 J0.0108
G2 X74.7159 Y69.3075 Z-2.4 I0.0062 J-0.0108
G2 X74.6971 Y69.2967 Z-2.4333 I-0.0125 J0.0
G2 Y69.3184 Z-2.4667 I0.0062 J0.0108
G2 X74.7159 Y69.3075 Z-2.5 I0.0062 J-0.0108
G2 X74.6971 Y69.2967 Z-2.5333 I-0.0125 J0.0
G2 Y69.3184 Z-2.5667 I0.0062 J0.0108
G2 X74.7159 Y69.3075 Z-2.6 I0.0062 J-0.0108
G2 X74.6971 Y69.2967 Z-2.6333 I-0.0125 J0.0
G2 Y69.3184 Z-2.6667 I0.0062 J0.0108
G2 X74.7159 Y69.3075 Z-2.7 I0.0062 J-0.0108
G2 X74.6971 Y69.2967 Z-2.7333 I-0.0125 J0.0
G2 Y69.3184 Z-2.7667 I0.0063 J0.0108
G2 X74.7159 Y69.3075 Z-2.8 I0.0062 J-0.0108
G2 X74.6971 Y69.2967 Z-2.8333 I-0.0125 J0.0
G2 Y69.3184 Z-2.8667 I0.0063 J0.0108
G2 X74.7159 Y69.3075 Z-2.9 I0.0062 J-0.0108
G2 X74.6971 Y69.2967 Z-2.9333 I-0.0125 J0.0
G2 Y69.3184 Z-2.9667 I0.0063 J0.0108
G2 X74.7159 Y69.3075 Z-3.0 I0.0062 J-0.0108
G2 X74.6971 Y69.2967 Z-3.0333 I-0.0125 J0.0
G2 Y69.3184 Z-3.0667 I0.0063 J0.0108
G2 X74.7159 Y69.3075 Z-3.1 I0.0062 J-0.0108
G2 X74.6971 Y69.2967 Z-3.1333 I-0.0125 J0.0
G2 Y69.3184 Z-3.1667 I0.0063 J0.0108
G2 X74.7159 Y69.3075 Z-3.2 I0.0062 J-0.0108
G2 X74.6971 Y69.2967 I-0.0125 J0.0
G2 Y69.3184 I0.0063 J0.0108
G2 X74.7159 Y69.3075 I0.0062 J-0.0108
G0 Z3.0
G0 X39.0455 Y92.0827
G1 F1000.0 Z0.0
G2 F2000.0 X39.0268 Y92.0718 Z-0.0333 I-0.0125 J0.0
G2 Y92.0935 Z-0.0667 I0.0062 J0.0108
G2 X39.0455 Y92.0827 Z-0.1 I0.0063 J-0.0108
G2 X39.0268 Y92.0718 Z-0.1333 I-0.0125 J0.0
G2 Y92.0935 Z-0.1667 I0.0062 J0.0108
G2 X39.0455 Y92.0827 Z-0.2 I0.0063 J-0.0108
G2 X39.0268 Y92.0718 Z-0.2333 I-0.0125 J0.0
G2 Y92.0935 Z-0.2667 I0.0062 J0.0108
G2 X39.0455 Y92.0827 Z-0.3 I0.0063 J-0.0108
G2 X39.0268 Y92.0718 Z-0.3333 I-0.0125 J0.0
G2 Y92.0935 Z-0.3667 I0.0062 J0.0108
G2 X39.0455 Y92.0827 Z-0.4 I0.0063 J-0.0108
G2 X39.0268 Y92.0718 Z-0.4333 I-0.0125 J0.0
G2 Y92.0935 Z-0.4667 I0.0062 J0.0108
G2 X39.0455 Y92.0827 Z-0.5 I0.0063 J-0.0108
G2 X39.0268 Y92.0718 Z-0.5333 I-0.0125 J0.0
G2 Y92.0935 Z-0.5667 I0.0062 J0.0108
G2 X39.0455 Y92.0827 Z-0.6 I0.0063 J-0.0108
G2 X39.0268 Y92.0718 Z-0.6333 I-0.0125 J0.0
G2 Y92.0935 Z-0.6667 I0.0062 J0.0108
G2 X39.0455 Y92.0827 Z-0.7 I0.0063 J-0.0108
G2 X39.0268 Y92.0718 Z-0.7333 I-0.0125 J0.0
G2 Y92.0935 Z-0.7667 I0.0062 J0.0108
G2 X39.0455 Y92.0827 Z-0.8 I0.0063 J-0.0108
G2 X39.0268 Y92.0718 Z-0.8333 I-0.0125 J0.0
G2 Y92.0935 Z-0.8667 I0.0062 J0.0108
G2 X39.0455 Y92.0827 Z-0.9 I0.0063 J-0.0108
G2 X39.0268 Y92.0718 Z-0.9333 I-0.0125 J0.0
G2 Y92.0935 Z-0.9667 I0.0062 J0.0108
G2 X39.0455 Y92.0827 Z-1.0 I0.0063 J-0.0108
G2 X39.0268 Y92.0718 Z-1.0333 I-0.0125 J0.0
G2 Y92.0935 Z-1.0667 I0.0062 J0.0108
G2 X39.0455 Y92.0827 Z-1.1 I0.0063 J-0.0108
G2 X39.0268 Y92.0718 Z-1.1333 I-0.0125 J0.0
G2 Y92.0935 Z-1.1667 I0.0062 J0.0108
G2 X39.0455 Y92.0827 Z-1.2 I0.0063 J-0.0108
G2 X39.0268 Y92.0718 Z-1.2333 I-0.0125 J0.0
G2 Y92.0935 Z-1.2667 I0.0062 J0.0108
G2 X39.0455 Y92.0827 Z-1.3 I0.0063 J-0.0108
G2 X39.0268 Y92.0718 Z-1.3333 I-0.0125 J0.0
G2 Y92.0935 Z-1.3667 I0.0062 J0.0108
G2 X39.0455 Y92.0827 Z-1.4 I0.0063 J-0.0108
G2 X39.0268 Y92.0718 Z-1.4333 I-0.0125 J0.0
G2 Y92.0935 Z-1.4667 I0.0062 J0.0108
G2 X39.0455 Y92.0827 Z-1.5 I0.0063 J-0.0108
G2 X39.0268 Y92.0718 Z-1.5333 I-0.0125 J0.0
G2 Y92.0935 Z-1.5667 I0.0062 J0.0108
G2 X39.0455 Y92.0827 Z-1.6 I0.0063 J-0.0108
G2 X39.0268 Y92.0718 Z-1.6333 I-0.0125 J0.0
G2 Y92.0935 Z-1.6667 I0.0062 J0.0108
G2 X39.0455 Y92.0827 Z-1.7 I0.0063 J-0.0108
G2 X39.0268 Y92.0718 Z-1.7333 I-0.0125 J0.0
G2 Y92.0935 Z-1.7667 I0.0062 J0.0108
G2 X39.0455 Y92.0827 Z-1.8 I0.0063 J-0.0108
G2 X39.0268 Y92.0718 Z-1.8333 I-0.0125 J0.0
G2 Y92.0935 Z-1.8667 I0.0062 J0.0108
G2 X39.0455 Y92.0827 Z-1.9 I0.0063 J-0.0108
G2 X39.0268 Y92.0718 Z-1.9333 I-0.0125 J0.0
G2 Y92.0935 Z-1.9667 I0.0062 J0.0108
G2 X39.0455 Y92.0827 Z-2.0 I0.0063 J-0.0108
G2 X39.0268 Y92.0718 Z-2.0333 I-0.0125 J0.0
G2 Y92.0935 Z-2.0667 I0.0062 J0.0108
G2 X39.0455 Y92.0827 Z-2.1 I0.0063 J-0.0108
G2 X39.0268 Y92.0718 Z-2.1333 I-0.0125 J0.0
G2 Y92.0935 Z-2.1667 I0.0062 J0.0108
G2 X39.0455 Y92.0827 Z-2.2 I0.0063 J-0.0108
G2 X39.0268 Y92.0718 Z-2.2333 I-0.0125 J0.0
G2 Y92.0935 Z-2.2667 I0.0062 J0.0108
G2 X39.0455 Y92.0827 Z-2.3 I0.0063 J-0.0108
G2 X39.0268 Y92.0718 Z-2.3333 I-0.0125 J0.0
G2 Y92.0935 Z-2.3667 I0.0062 J0.0108
G2 X39.0455 Y92.0827 Z-2.4 I0.0063 J-0.0108
G2 X39.0268 Y92.0718 Z-2.4333 I-0.0125 J0.0
G2 Y92.0935 Z-2.4667 I0.0062 J0.0108
G2 X39.0455 Y92.0827 Z-2.5 I0.0063 J-0.0108
G2 X39.0268 Y92.0718 Z-2.5333 I-0.0125 J0.0
G2 Y92.0935 Z-2.5667 I0.0062 J0.0108
G2 X39.0455 Y92.0827 Z-2.6 I0.0063 J-0.0108
G2 X39.0268 Y92.0718 Z-2.6333 I-0.0125 J0.0
G2 Y92.0935 Z-2.6667 I0.0062 J0.0108
G2 X39.0455 Y92.0827 Z-2.7 I0.0063 J-0.0108
G2 X39.0268 Y92.0718 Z-2.7333 I-0.0125 J0.0
G2 Y92.0935 Z-2.7667 I0.0062 J0.0108
G2 X39.0455 Y92.0827 Z-2.8 I0.0063 J-0.0108
G2 X39.0268 Y92.0718 Z-2.8333 I-0.0125 J0.0
G2 Y92.0935 Z-2.8667 I0.0062 J0.0108
G2 X39.0455 Y92.0827 Z-2.9 I0.0063 J-0.0108
G2 X39.0268 Y92.0718 Z-2.9333 I-0.0125 J0.0
G2 Y92.0935 Z-2.9667 I0.0063 J0.0108
G2 X39.0455 Y92.0827 Z-3.0 I0.0063 J-0.0108
G2 X39.0268 Y92.0718 Z-3.0333 I-0.0125 J0.0
G2 Y92.0935 Z-3.0667 I0.0063 J0.0108
G2 X39.0455 Y92.0827 Z-3.1 I0.0063 J-0.0108
G2 X39.0268 Y92.0718 Z-3.1333 I-0.0125 J0.0
G2 Y92.0935 Z-3.1667 I0.0063 J0.0108
G2 X39.0455 Y92.0827 Z-3.2 I0.0063 J-0.0108
G2 X39.0268 Y92.0718 I-0.0125 J0.0
G2 Y92.0935 I0.0063 J0.0108
G2 X39.0455 Y92.0827 I0.0062 J-0.0108
G0 Z3.0
G0 X44.1464 Y106.791
G1 F1000.0 Z0.0
G2 F2000.0 X44.1277 Y106.7802 Z-0.0333 I-0.0125 J0.0
G2 Y106.8018 Z-0.0667 I0.0062 J0.0108
G2 X44.1464 Y106.791 Z-0.1 I0.0063 J-0.0108
G2 X44.1277 Y106.7802 Z-0.1333 I-0.0125 J0.0
G2 Y106.8018 Z-0.1667 I0.0062 J0.0108
G2 X44.1464 Y106.791 Z-0.2 I0.0063 J-0.0108
G2 X44.1277 Y106.7802 Z-0.2333 I-0.0125 J0.0
G2 Y106.8018 Z-0.2667 I0.0062 J0.0108
G2 X44.1464 Y106.791 Z-0.3 I0.0063 J-0.0108
G2 X44.1277 Y106.7802 Z-0.3333 I-0.0125 J0.0
G2 Y106.8018 Z-0.3667 I0.0062 J0.0108
G2 X44.1464 Y106.791 Z-0.4 I0.0063 J-0.0108
G2 X44.1277 Y106.7802 Z-0.4333 I-0.0125 J0.0
G2 Y106.8018 Z-0.4667 I0.0062 J0.0108
G2 X44.1464 Y106.791 Z-0.5 I0.0063 J-0.0108
G2 X44.1277 Y106.7802 Z-0.5333 I-0.0125 J0.0
G2 Y106.8018 Z-0.5667 I0.0062 J0.0108
G2 X44.1464 Y106.791 Z-0.6 I0.0063 J-0.0108
G2 X44.1277 Y106.7802 Z-0.6333 I-0.0125 J0.0
G2 Y106.8018 Z-0.6667 I0.0062 J0.0108
G2 X44.1464 Y106.791 Z-0.7 I0.0063 J-0.0108
G2 X44.1277 Y106.7802 Z-0.7333 I-0.0125 J0.0
G2 Y106.8018 Z-0.7667 I0.0062 J0.0108
G2 X44.1464 Y106.791 Z-0.8 I0.0063 J-0.0108
G2 X44.1277 Y106.7802 Z-0.8333 I-0.0125 J0.0
G2 Y106.8018 Z-0.8667 I0.0062 J0.0108
G2 X44.1464 Y106.791 Z-0.9 I0.0063 J-0.0108
G2 X44.1277 Y106.7802 Z-0.9333 I-0.0125 J0.0
G2 Y106.8018 Z-0.9667 I0.0062 J0.0108
G2 X44.1464 Y106.791 Z-1.0 I0.0063 J-0.0108
G2 X44.1277 Y106.7802 Z-1.0333 I-0.0125 J0.0
G2 Y106.8018 Z-1.0667 I0.0062 J0.0108
G2 X44.1464 Y106.791 Z-1.1 I0.0063 J-0.0108
G2 X44.1277 Y106.7802 Z-1.1333 I-0.0125 J0.0
G2 Y106.8018 Z-1.1667 I0.0062 J0.0108
G2 X44.1464 Y106.791 Z-1.2 I0.0063 J-0.0108
G2 X44.1277 Y106.7802 Z-1.2333 I-0.0125 J0.0
G2 Y106.8018 Z-1.2667 I0.0062 J0.0108
G2 X44.1464 Y106.791 Z-1.3 I0.0063 J-0.0108
G2 X44.1277 Y106.7802 Z-1.3333 I-0.0125 J0.0
G2 Y106.8018 Z-1.3667 I0.0062 J0.0108
G2 X44.1464 Y106.791 Z-1.4 I0.0063 J-0.0108
G2 X44.1277 Y106.7802 Z-1.4333 I-0.0125 J0.0
G2 Y106.8018 Z-1.4667 I0.0062 J0.0108
G2 X44.1464 Y106.791 Z-1.5 I0.0063 J-0.0108
G2 X44.1277 Y106.7802 Z-1.5333 I-0.0125 J0.0
G2 Y106.8018 Z-1.5667 I0.0062 J0.0108
G2 X44.1464 Y106.791 Z-1.6 I0.0063 J-0.0108
G2 X44.1277 Y106.7802 Z-1.6333 I-0.0125 J0.0
G2 Y106.8018 Z-1.6667 I0.0062 J0.0108
G2 X44.1464 Y106.791 Z-1.7 I0.0063 J-0.0108
G2 X44.1277 Y106.7802 Z-1.7333 I-0.0125 J0.0
G2 Y106.8018 Z-1.7667 I0.0062 J0.0108
G2 X44.1464 Y106.791 Z-1.8 I0.0063 J-0.0108
G2 X44.1277 Y106.7802 Z-1.8333 I-0.0125 J0.0
G2 Y106.8018 Z-1.8667 I0.0062 J0.0108
G2 X44.1464 Y106.791 Z-1.9 I0.0063 J-0.0108
G2 X44.1277 Y106.7802 Z-1.9333 I-0.0125 J0.0
G2 Y106.8018 Z-1.9667 I0.0062 J0.0108
G2 X44.1464 Y106.791 Z-2.0 I0.0063 J-0.0108
G2 X44.1277 Y106.7802 Z-2.0333 I-0.0125 J0.0
G2 Y106.8018 Z-2.0667 I0.0062 J0.0108
G2 X44.1464 Y106.791 Z-2.1 I0.0063 J-0.0108
G2 X44.1277 Y106.7802 Z-2.1333 I-0.0125 J0.0
G2 Y106.8018 Z-2.1667 I0.0062 J0.0108
G2 X44.1464 Y106.791 Z-2.2 I0.0063 J-0.0108
G2 X44.1277 Y106.7802 Z-2.2333 I-0.0125 J0.0
G2 Y106.8018 Z-2.2667 I0.0062 J0.0108
G2 X44.1464 Y106.791 Z-2.3 I0.0063 J-0.0108
G2 X44.1277 Y106.7802 Z-2.3333 I-0.0125 J0.0
G2 Y106.8018 Z-2.3667 I0.0062 J0.0108
G2 X44.1464 Y106.791 Z-2.4 I0.0063 J-0.0108
G2 X44.1277 Y106.7802 Z-2.4333 I-0.0125 J0.0
G2 Y106.8018 Z-2.4667 I0.0062 J0.0108
G2 X44.1464 Y106.791 Z-2.5 I0.0063 J-0.0108
G2 X44.1277 Y106.7802 Z-2.5333 I-0.0125 J0.0
G2 Y106.8018 Z-2.5667 I0.0062 J0.0108
G2 X44.1464 Y106.791 Z-2.6 I0.0063 J-0.0108
G2 X44.1277 Y106.7802 Z-2.6333 I-0.0125 J0.0
G2 Y106.8018 Z-2.6667 I0.0062 J0.0108
G2 X44.1464 Y106.791 Z-2.7 I0.0063 J-0.0108
G2 X44.1277 Y106.7802 Z-2.7333 I-0.0125 J0.0
G2 Y106.8018 Z-2.7667 I0.0062 J0.0108
G2 X44.1464 Y106.791 Z-2.8 I0.0063 J-0.0108
G2 X44.1277 Y106.7802 Z-2.8333 I-0.0125 J0.0
G2 Y106.8018 Z-2.8667 I0.0062 J0.0108
G2 X44.1464 Y106.791 Z-2.9 I0.0063 J-0.0108
G2 X44.1277 Y106.7802 Z-2.9333 I-0.0125 J0.0
G2 Y106.8018 Z-2.9667 I0.0063 J0.0108
G2 X44.1464 Y106.791 Z-3.0 I0.0063 J-0.0108
G2 X44.1277 Y106.7802 Z-3.0333 I-0.0125 J0.0
G2 Y106.8018 Z-3.0667 I0.0063 J0.0108
G2 X44.1464 Y106.791 Z-3.1 I0.0063 J-0.0108
G2 X44.1277 Y106.7802 Z-3.1333 I-0.0125 J0.0
G2 Y106.8018 Z-3.1667 I0.0063 J0.0108
G2 X44.1464 Y106.791 Z-3.2 I0.0063 J-0.0108
G2 X44.1277 Y106.7802 I-0.0125 J0.0
G2 Y106.8018 I0.0063 J0.0108
G2 X44.1464 Y106.791 I0.0062 J-0.0108
G0 Z3.0
G0 X9.7279 Y92.1322
G1 F1000.0 Z0.0
G2 F2000.0 X9.7091 Y92.1214 Z-0.0333 I-0.0125 J0.0
G2 Y92.143 Z-0.0667 I0.0062 J0.0108
G2 X9.7279 Y92.1322 Z-0.1 I0.0063 J-0.0108
G2 X9.7091 Y92.1214 Z-0.1333 I-0.0125 J0.0
G2 Y92.143 Z-0.1667 I0.0062 J0.0108
G2 X9.7279 Y92.1322 Z-0.2 I0.0063 J-0.0108
G2 X9.7091 Y92.1214 Z-0.2333 I-0.0125 J0.0
G2 Y92.143 Z-0.2667 I0.0062 J0.0108
G2 X9.7279 Y92.1322 Z-0.3 I0.0063 J-0.0108
G2 X9.7091 Y92.1214 Z-0.3333 I-0.0125 J0.0
G2 Y92.143 Z-0.3667 I0.0062 J0.0108
G2 X9.7279 Y92.1322 Z-0.4 I0.0063 J-0.0108
G2 X9.7091 Y92.1214 Z-0.4333 I-0.0125 J0.0
G2 Y92.143 Z-0.4667 I0.0062 J0.0108
G2 X9.7279 Y92.1322 Z-0.5 I0.0063 J-0.0108
G2 X9.7091 Y92.1214 Z-0.5333 I-0.0125 J0.0
G2 Y92.143 Z-0.5667 I0.0062 J0.0108
G2 X9.7279 Y92.1322 Z-0.6 I0.0063 J-0.0108
G2 X9.7091 Y92.1214 Z-0.6333 I-0.0125 J0.0
G2 Y92.143 Z-0.6667 I0.0062 J0.0108
G2 X9.7279 Y92.1322 Z-0.7 I0.0063 J-0.0108
G2 X9.7091 Y92.1214 Z-0.7333 I-0.0125 J0.0
G2 Y92.143 Z-0.7667 I0.0062 J0.0108
G2 X9.7279 Y92.1322 Z-0.8 I0.0063 J-0.0108
G2 X9.7091 Y92.1214 Z-0.8333 I-0.0125 J0.0
G2 Y92.143 Z-0.8667 I0.0062 J0.0108
G2 X9.7279 Y92.1322 Z-0.9 I0.0063 J-0.0108
G2 X9.7091 Y92.1214 Z-0.9333 I-0.0125 J0.0
G2 Y92.143 Z-0.9667 I0.0062 J0.0108
G2 X9.7279 Y92.1322 Z-1.0 I0.0063 J-0.0108
G2 X9.7091 Y92.1214 Z-1.0333 I-0.0125 J0.0
G2 Y92.143 Z-1.0667 I0.0062 J0.0108
G2 X9.7279 Y92.1322 Z-1.1 I0.0063 J-0.0108
G2 X9.7091 Y92.1214 Z-1.1333 I-0.0125 J0.0
G2 Y92.143 Z-1.1667 I0.0062 J0.0108
G2 X9.7279 Y92.1322 Z-1.2 I0.0063 J-0.0108
G2 X9.7091 Y92.1214 Z-1.2333 I-0.0125 J0.0
G2 Y92.143 Z-1.2667 I0.0062 J0.0108
G2 X9.7279 Y92.1322 Z-1.3 I0.0063 J-0.0108
G2 X9.7091 Y92.1214 Z-1.3333 I-0.0125 J0.0
G2 Y92.143 Z-1.3667 I0.0062 J0.0108
G2 X9.7279 Y92.1322 Z-1.4 I0.0063 J-0.0108
G2 X9.7091 Y92.1214 Z-1.4333 I-0.0125 J0.0
G2 Y92.143 Z-1.4667 I0.0062 J0.0108
G2 X9.7279 Y92.1322 Z-1.5 I0.0063 J-0.0108
G2 X9.7091 Y92.1214 Z-1.5333 I-0.0125 J0.0
G2 Y92.143 Z-1.5667 I0.0062 J0.0108
G2 X9.7279 Y92.1322 Z-1.6 I0.0063 J-0.0108
G2 X9.7091 Y92.1214 Z-1.6333 I-0.0125 J0.0
G2 Y92.143 Z-1.6667 I0.0062 J0.0108
G2 X9.7279 Y92.1322 Z-1.7 I0.0063 J-0.0108
G2 X9.7091 Y92.1214 Z-1.7333 I-0.0125 J0.0
G2 Y92.143 Z-1.7667 I0.0062 J0.0108
G2 X9.7279 Y92.1322 Z-1.8 I0.0063 J-0.0108
G2 X9.7091 Y92.1214 Z-1.8333 I-0.0125 J0.0
G2 Y92.143 Z-1.8667 I0.0062 J0.0108
G2 X9.7279 Y92.1322 Z-1.9 I0.0063 J-0.0108
G2 X9.7091 Y92.1214 Z-1.9333 I-0.0125 J0.0
G2 Y92.143 Z-1.9667 I0.0062 J0.0108
G2 X9.7279 Y92.1322 Z-2.0 I0.0063 J-0.0108
G2 X9.7091 Y92.1214 Z-2.0333 I-0.0125 J0.0
G2 Y92.143 Z-2.0667 I0.0062 J0.0108
G2 X9.7279 Y92.1322 Z-2.1 I0.0063 J-0.0108
G2 X9.7091 Y92.1214 Z-2.1333 I-0.0125 J0.0
G2 Y92.143 Z-2.1667 I0.0062 J0.0108
G2 X9.7279 Y92.1322 Z-2.2 I0.0063 J-0.0108
G2 X9.7091 Y92.1214 Z-2.2333 I-0.0125 J0.0
G2 Y92.143 Z-2.2667 I0.0062 J0.0108
G2 X9.7279 Y92.1322 Z-2.3 I0.0063 J-0.0108
G2 X9.7091 Y92.1214 Z-2.3333 I-0.0125 J0.0
G2 Y92.143 Z-2.3667 I0.0062 J0.0108
G2 X9.7279 Y92.1322 Z-2.4 I0.0063 J-0.0108
G2 X9.7091 Y92.1214 Z-2.4333 I-0.0125 J0.0
G2 Y92.143 Z-2.4667 I0.0062 J0.0108
G2 X9.7279 Y92.1322 Z-2.5 I0.0063 J-0.0108
G2 X9.7091 Y92.1214 Z-2.5333 I-0.0125 J0.0
G2 Y92.143 Z-2.5667 I0.0062 J0.0108
G2 X9.7279 Y92.1322 Z-2.6 I0.0063 J-0.0108
G2 X9.7091 Y92.1214 Z-2.6333 I-0.0125 J0.0
G2 Y92.143 Z-2.6667 I0.0062 J0.0108
G2 X9.7279 Y92.1322 Z-2.7 I0.0063 J-0.0108
G2 X9.7091 Y92.1214 Z-2.7333 I-0.0125 J0.0
G2 Y92.143 Z-2.7667 I0.0062 J0.0108
G2 X9.7279 Y92.1322 Z-2.8 I0.0062 J-0.0108
G2 X9.7091 Y92.1214 Z-2.8333 I-0.0125 J0.0
G2 Y92.143 Z-2.8667 I0.0062 J0.0108
G2 X9.7279 Y92.1322 Z-2.9 I0.0062 J-0.0108
G2 X9.7091 Y92.1214 Z-2.9333 I-0.0125 J0.0
G2 Y92.143 Z-2.9667 I0.0062 J0.0108
G2 X9.7279 Y92.1322 Z-3.0 I0.0062 J-0.0108
G2 X9.7091 Y92.1214 Z-3.0333 I-0.0125 J0.0
G2 Y92.143 Z-3.0667 I0.0062 J0.0108
G2 X9.7279 Y92.1322 Z-3.1 I0.0062 J-0.0108
G2 X9.7091 Y92.1214 Z-3.1333 I-0.0125 J0.0
G2 Y92.143 Z-3.1667 I0.0063 J0.0108
G2 X9.7279 Y92.1322 Z-3.2 I0.0062 J-0.0108
G2 X9.7091 Y92.1214 I-0.0125 J0.0
G2 Y92.143 I0.0063 J0.0108
G2 X9.7279 Y92.1322 I0.0062 J-0.0108
G0 Z3.0
G0 X9.6856 Y78.0132
G1 F1000.0 Z0.0
G2 F2000.0 X9.6669 Y78.0023 Z-0.0333 I-0.0125 J0.0
G2 Y78.024 Z-0.0667 I0.0062 J0.0108
G2 X9.6856 Y78.0132 Z-0.1 I0.0063 J-0.0108
G2 X9.6669 Y78.0023 Z-0.1333 I-0.0125 J0.0
G2 Y78.024 Z-0.1667 I0.0062 J0.0108
G2 X9.6856 Y78.0132 Z-0.2 I0.0063 J-0.0108
G2 X9.6669 Y78.0023 Z-0.2333 I-0.0125 J0.0
G2 Y78.024 Z-0.2667 I0.0062 J0.0108
G2 X9.6856 Y78.0132 Z-0.3 I0.0063 J-0.0108
G2 X9.6669 Y78.0023 Z-0.3333 I-0.0125 J0.0
G2 Y78.024 Z-0.3667 I0.0062 J0.0108
G2 X9.6856 Y78.0132 Z-0.4 I0.0063 J-0.0108
G2 X9.6669 Y78.0023 Z-0.4333 I-0.0125 J0.0
G2 Y78.024 Z-0.4667 I0.0062 J0.0108
G2 X9.6856 Y78.0132 Z-0.5 I0.0063 J-0.0108
G2 X9.6669 Y78.0023 Z-0.5333 I-0.0125 J0.0
G2 Y78.024 Z-0.5667 I0.0062 J0.0108
G2 X9.6856 Y78.0132 Z-0.6 I0.0063 J-0.0108
G2 X9.6669 Y78.0023 Z-0.6333 I-0.0125 J0.0
G2 Y78.024 Z-0.6667 I0.0062 J0.0108
G2 X9.6856 Y78.0132 Z-0.7 I0.0063 J-0.0108
G2 X9.6669 Y78.0023 Z-0.7333 I-0.0125 J0.0
G2 Y78.024 Z-0.7667 I0.0062 J0.0108
G2 X9.6856 Y78.0132 Z-0.8 I0.0063 J-0.0108
G2 X9.6669 Y78.0023 Z-0.8333 I-0.0125 J0.0
G2 Y78.024 Z-0.8667 I0.0062 J0.0108
G2 X9.6856 Y78.0132 Z-0.9 I0.0063 J-0.0108
G2 X9.6669 Y78.0023 Z-0.9333 I-0.0125 J0.0
G2 Y78.024 Z-0.9667 I0.0062 J0.0108
G2 X9.6856 Y78.0132 Z-1.0 I0.0063 J-0.0108
G2 X9.6669 Y78.0023 Z-1.0333 I-0.0125 J0.0
G2 Y78.024 Z-1.0667 I0.0062 J0.0108
G2 X9.6856 Y78.0132 Z-1.1 I0.0063 J-0.0108
G2 X9.6669 Y78.0023 Z-1.1333 I-0.0125 J0.0
G2 Y78.024 Z-1.1667 I0.0062 J0.0108
G2 X9.6856 Y78.0132 Z-1.2 I0.0063 J-0.0108
G2 X9.6669 Y78.0023 Z-1.2333 I-0.0125 J0.0
G2 Y78.024 Z-1.2667 I0.0062 J0.0108
G2 X9.6856 Y78.0132 Z-1.3 I0.0063 J-0.0108
G2 X9.6669 Y78.0023 Z-1.3333 I-0.0125 J0.0
G2 Y78.024 Z-1.3667 I0.0062 J0.0108
G2 X9.6856 Y78.0132 Z-1.4 I0.0063 J-0.0108
G2 X9.6669 Y78.0023 Z-1.4333 I-0.0125 J0.0
G2 Y78.024 Z-1.4667 I0.0062 J0.0108
G2 X9.6856 Y78.0132 Z-1.5 I0.0063 J-0.0108
G2 X9.6669 Y78.0023 Z-1.5333 I-0.0125 J0.0
G2 Y78.024 Z-1.5667 I0.0062 J0.0108
G2 X9.6856 Y78.0132 Z-1.6 I0.0063 J-0.0108
G2 X9.6669 Y78.0023 Z-1.6333 I-0.0125 J0.0
G2 Y78.024 Z-1.6667 I0.0062 J0.0108
G2 X9.6856 Y78.0132 Z-1.7 I0.0063 J-0.0108
G2 X9.6669 Y78.0023 Z-1.7333 I-0.0125 J0.0
G2 Y78.024 Z-1.7667 I0.0062 J0.0108
G2 X9.6856 Y78.0132 Z-1.8 I0.0063 J-0.0108
G2 X9.6669 Y78.0023 Z-1.8333 I-0.0125 J0.0
G2 Y78.024 Z-1.8667 I0.0062 J0.0108
G2 X9.6856 Y78.0132 Z-1.9 I0.0063 J-0.0108
G2 X9.6669 Y78.0023 Z-1.9333 I-0.0125 J0.0
G2 Y78.024 Z-1.9667 I0.0062 J0.0108
G2 X9.6856 Y78.0132 Z-2.0 I0.0063 J-0.0108
G2 X9.6669 Y78.0023 Z-2.0333 I-0.0125 J0.0
G2 Y78.024 Z-2.0667 I0.0062 J0.0108
G2 X9.6856 Y78.0132 Z-2.1 I0.0063 J-0.0108
G2 X9.6669 Y78.0023 Z-2.1333 I-0.0125 J0.0
G2 Y78.024 Z-2.1667 I0.0062 J0.0108
G2 X9.6856 Y78.0132 Z-2.2 I0.0063 J-0.0108
G2 X9.6669 Y78.0023 Z-2.2333 I-0.0125 J0.0
G2 Y78.024 Z-2.2667 I0.0062 J0.0108
G2 X9.6856 Y78.0132 Z-2.3 I0.0063 J-0.0108
G2 X9.6669 Y78.0023 Z-2.3333 I-0.0125 J0.0
G2 Y78.024 Z-2.3667 I0.0062 J0.0108
G2 X9.6856 Y78.0132 Z-2.4 I0.0063 J-0.0108
G2 X9.6669 Y78.0023 Z-2.4333 I-0.0125 J0.0
G2 Y78.024 Z-2.4667 I0.0062 J0.0108
G2 X9.6856 Y78.0132 Z-2.5 I0.0063 J-0.0108
G2 X9.6669 Y78.0023 Z-2.5333 I-0.0125 J0.0
G2 Y78.024 Z-2.5667 I0.0062 J0.0108
G2 X9.6856 Y78.0132 Z-2.6 I0.0063 J-0.0108
G2 X9.6669 Y78.0023 Z-2.6333 I-0.0125 J0.0
G2 Y78.024 Z-2.6667 I0.0062 J0.0108
G2 X9.6856 Y78.0132 Z-2.7 I0.0063 J-0.0108
G2 X9.6669 Y78.0023 Z-2.7333 I-0.0125 J0.0
G2 Y78.024 Z-2.7667 I0.0062 J0.0108
G2 X9.6856 Y78.0132 Z-2.8 I0.0063 J-0.0108
G2 X9.6669 Y78.0023 Z-2.8333 I-0.0125 J0.0
G2 Y78.024 Z-2.8667 I0.0062 J0.0108
G2 X9.6856 Y78.0132 Z-2.9 I0.0063 J-0.0108
G2 X9.6669 Y78.0023 Z-2.9333 I-0.0125 J0.0
G2 Y78.024 Z-2.9667 I0.0062 J0.0108
G2 X9.6856 Y78.0132 Z-3.0 I0.0063 J-0.0108
G2 X9.6669 Y78.0023 Z-3.0333 I-0.0125 J0.0
G2 Y78.024 Z-3.0667 I0.0062 J0.0108
G2 X9.6856 Y78.0132 Z-3.1 I0.0063 J-0.0108
G2 X9.6669 Y78.0023 Z-3.1333 I-0.0125 J0.0
G2 Y78.024 Z-3.1667 I0.0063 J0.0108
G2 X9.6856 Y78.0132 Z-3.2 I0.0062 J-0.0108
G2 X9.6669 Y78.0023 I-0.0125 J0.0
G2 Y78.024 I0.0063 J0.0108
G2 X9.6856 Y78.0132 I0.0062 J-0.0108
G0 Z3.0
G0 Y64.2309
G1 F1000.0 Z0.0
G2 F2000.0 X9.6669 Y64.2201 Z-0.0333 I-0.0125 J0.0
G2 Y64.2417 Z-0.0667 I0.0062 J0.0108
G2 X9.6856 Y64.2309 Z-0.1 I0.0063 J-0.0108
G2 X9.6669 Y64.2201 Z-0.1333 I-0.0125 J0.0
G2 Y64.2417 Z-0.1667 I0.0062 J0.0108
G2 X9.6856 Y64.2309 Z-0.2 I0.0063 J-0.0108
G2 X9.6669 Y64.2201 Z-0.2333 I-0.0125 J0.0
G2 Y64.2417 Z-0.2667 I0.0062 J0.0108
G2 X9.6856 Y64.2309 Z-0.3 I0.0063 J-0.0108
G2 X9.6669 Y64.2201 Z-0.3333 I-0.0125 J0.0
G2 Y64.2417 Z-0.3667 I0.0062 J0.0108
G2 X9.6856 Y64.2309 Z-0.4 I0.0063 J-0.0108
G2 X9.6669 Y64.2201 Z-0.4333 I-0.0125 J0.0
G2 Y64.2417 Z-0.4667 I0.0062 J0.0108
G2 X9.6856 Y64.2309 Z-0.5 I0.0063 J-0.0108
G2 X9.6669 Y64.2201 Z-0.5333 I-0.0125 J0.0
G2 Y64.2417 Z-0.5667 I0.0062 J0.0108
G2 X9.6856 Y64.2309 Z-0.6 I0.0063 J-0.0108
G2 X9.6669 Y64.2201 Z-0.6333 I-0.0125 J0.0
G2 Y64.2417 Z-0.6667 I0.0062 J0.0108
G2 X9.6856 Y64.2309 Z-0.7 I0.0063 J-0.0108
G2 X9.6669 Y64.2201 Z-0.7333 I-0.0125 J0.0
G2 Y64.2417 Z-0.7667 I0.0062 J0.0108
G2 X9.6856 Y64.2309 Z-0.8 I0.0063 J-0.0108
G2 X9.6669 Y64.2201 Z-0.8333 I-0.0125 J0.0
G2 Y64.2417 Z-0.8667 I0.0062 J0.0108
G2 X9.6856 Y64.2309 Z-0.9 I0.0063 J-0.0108
G2 X9.6669 Y64.2201 Z-0.9333 I-0.0125 J0.0
G2 Y64.2417 Z-0.9667 I0.0062 J0.0108
G2 X9.6856 Y64.2309 Z-1.0 I0.0063 J-0.0108
G2 X9.6669 Y64.2201 Z-1.0333 I-0.0125 J0.0
G2 Y64.2417 Z-1.0667 I0.0062 J0.0108
G2 X9.6856 Y64.2309 Z-1.1 I0.0063 J-0.0108
G2 X9.6669 Y64.2201 Z-1.1333 I-0.0125 J0.0
G2 Y64.2417 Z-1.1667 I0.0062 J0.0108
G2 X9.6856 Y64.2309 Z-1.2 I0.0063 J-0.0108
G2 X9.6669 Y64.2201 Z-1.2333 I-0.0125 J0.0
G2 Y64.2417 Z-1.2667 I0.0062 J0.0108
G2 X9.6856 Y64.2309 Z-1.3 I0.0063 J-0.0108
G2 X9.6669 Y64.2201 Z-1.3333 I-0.0125 J0.0
G2 Y64.2417 Z-1.3667 I0.0062 J0.0108
G2 X9.6856 Y64.2309 Z-1.4 I0.0063 J-0.0108
G2 X9.6669 Y64.2201 Z-1.4333 I-0.0125 J0.0
G2 Y64.2417 Z-1.4667 I0.0062 J0.0108
G2 X9.6856 Y64.2309 Z-1.5 I0.0063 J-0.0108
G2 X9.6669 Y64.2201 Z-1.5333 I-0.0125 J0.0
G2 Y64.2417 Z-1.5667 I0.0062 J0.0108
G2 X9.6856 Y64.2309 Z-1.6 I0.0063 J-0.0108
G2 X9.6669 Y64.2201 Z-1.6333 I-0.0125 J0.0
G2 Y64.2417 Z-1.6667 I0.0062 J0.0108
G2 X9.6856 Y64.2309 Z-1.7 I0.0063 J-0.0108
G2 X9.6669 Y64.2201 Z-1.7333 I-0.0125 J0.0
G2 Y64.2417 Z-1.7667 I0.0062 J0.0108
G2 X9.6856 Y64.2309 Z-1.8 I0.0063 J-0.0108
G2 X9.6669 Y64.2201 Z-1.8333 I-0.0125 J0.0
G2 Y64.2417 Z-1.8667 I0.0062 J0.0108
G2 X9.6856 Y64.2309 Z-1.9 I0.0063 J-0.0108
G2 X9.6669 Y64.2201 Z-1.9333 I-0.0125 J0.0
G2 Y64.2417 Z-1.9667 I0.0062 J0.0108
G2 X9.6856 Y64.2309 Z-2.0 I0.0063 J-0.0108
G2 X9.6669 Y64.2201 Z-2.0333 I-0.0125 J0.0
G2 Y64.2417 Z-2.0667 I0.0062 J0.0108
G2 X9.6856 Y64.2309 Z-2.1 I0.0063 J-0.0108
G2 X9.6669 Y64.2201 Z-2.1333 I-0.0125 J0.0
G2 Y64.2417 Z-2.1667 I0.0062 J0.0108
G2 X9.6856 Y64.2309 Z-2.2 I0.0063 J-0.0108
G2 X9.6669 Y64.2201 Z-2.2333 I-0.0125 J0.0
G2 Y64.2417 Z-2.2667 I0.0062 J0.0108
G2 X9.6856 Y64.2309 Z-2.3 I0.0063 J-0.0108
G2 X9.6669 Y64.2201 Z-2.3333 I-0.0125 J0.0
G2 Y64.2417 Z-2.3667 I0.0062 J0.0108
G2 X9.6856 Y64.2309 Z-2.4 I0.0063 J-0.0108
G2 X9.6669 Y64.2201 Z-2.4333 I-0.0125 J0.0
G2 Y64.2417 Z-2.4667 I0.0062 J0.0108
G2 X9.6856 Y64.2309 Z-2.5 I0.0063 J-0.0108
G2 X9.6669 Y64.2201 Z-2.5333 I-0.0125 J0.0
G2 Y64.2417 Z-2.5667 I0.0062 J0.0108
G2 X9.6856 Y64.2309 Z-2.6 I0.0063 J-0.0108
G2 X9.6669 Y64.2201 Z-2.6333 I-0.0125 J0.0
G2 Y64.2417 Z-2.6667 I0.0062 J0.0108
G2 X9.6856 Y64.2309 Z-2.7 I0.0063 J-0.0108
G2 X9.6669 Y64.2201 Z-2.7333 I-0.0125 J0.0
G2 Y64.2417 Z-2.7667 I0.0062 J0.0108
G2 X9.6856 Y64.2309 Z-2.8 I0.0063 J-0.0108
G2 X9.6669 Y64.2201 Z-2.8333 I-0.0125 J0.0
G2 Y64.2417 Z-2.8667 I0.0062 J0.0108
G2 X9.6856 Y64.2309 Z-2.9 I0.0063 J-0.0108
G2 X9.6669 Y64.2201 Z-2.9333 I-0.0125 J0.0
G2 Y64.2417 Z-2.9667 I0.0062 J0.0108
G2 X9.6856 Y64.2309 Z-3.0 I0.0063 J-0.0108
G2 X9.6669 Y64.2201 Z-3.0333 I-0.0125 J0.0
G2 Y64.2417 Z-3.0667 I0.0062 J0.0108
G2 X9.6856 Y64.2309 Z-3.1 I0.0063 J-0.0108
G2 X9.6669 Y64.2201 Z-3.1333 I-0.0125 J0.0
G2 Y64.2417 Z-3.1667 I0.0063 J0.0108
G2 X9.6856 Y64.2309 Z-3.2 I0.0062 J-0.0108
G2 X9.6669 Y64.2201 I-0.0125 J0.0
G2 Y64.2417 I0.0063 J0.0108
G2 X9.6856 Y64.2309 I0.0062 J-0.0108
G0 Z3.0
G0 Y50.2089
G1 F1000.0 Z0.0
G2 F2000.0 X9.6669 Y50.1981 Z-0.0333 I-0.0125 J0.0
G2 Y50.2198 Z-0.0667 I0.0063 J0.0108
G2 X9.6856 Y50.2089 Z-0.1 I0.0062 J-0.0108
G2 X9.6669 Y50.1981 Z-0.1333 I-0.0125 J0.0
G2 Y50.2198 Z-0.1667 I0.0063 J0.0108
G2 X9.6856 Y50.2089 Z-0.2 I0.0062 J-0.0108
G2 X9.6669 Y50.1981 Z-0.2333 I-0.0125 J0.0
G2 Y50.2198 Z-0.2667 I0.0063 J0.0108
G2 X9.6856 Y50.2089 Z-0.3 I0.0062 J-0.0108
G2 X9.6669 Y50.1981 Z-0.3333 I-0.0125 J0.0
G2 Y50.2198 Z-0.3667 I0.0063 J0.0108
G2 X9.6856 Y50.2089 Z-0.4 I0.0062 J-0.0108
G2 X9.6669 Y50.1981 Z-0.4333 I-0.0125 J0.0
G2 Y50.2198 Z-0.4667 I0.0063 J0.0108
G2 X9.6856 Y50.2089 Z-0.5 I0.0062 J-0.0108
G2 X9.6669 Y50.1981 Z-0.5333 I-0.0125 J0.0
G2 Y50.2198 Z-0.5667 I0.0063 J0.0108
G2 X9.6856 Y50.2089 Z-0.6 I0.0062 J-0.0108
G2 X9.6669 Y50.1981 Z-0.6333 I-0.0125 J0.0
G2 Y50.2198 Z-0.6667 I0.0063 J0.0108
G2 X9.6856 Y50.2089 Z-0.7 I0.0062 J-0.0108
G2 X9.6669 Y50.1981 Z-0.7333 I-0.0125 J0.0
G2 Y50.2198 Z-0.7667 I0.0063 J0.0108
G2 X9.6856 Y50.2089 Z-0.8 I0.0062 J-0.0108
G2 X9.6669 Y50.1981 Z-0.8333 I-0.0125 J0.0
G2 Y50.2198 Z-0.8667 I0.0063 J0.0108
G2 X9.6856 Y50.2089 Z-0.9 I0.0062 J-0.0108
G2 X9.6669 Y50.1981 Z-0.9333 I-0.0125 J0.0
G2 Y50.2198 Z-0.9667 I0.0063 J0.0108
G2 X9.6856 Y50.2089 Z-1.0 I0.0062 J-0.0108
G2 X9.6669 Y50.1981 Z-1.0333 I-0.0125 J0.0
G2 Y50.2198 Z-1.0667 I0.0063 J0.0108
G2 X9.6856 Y50.2089 Z-1.1 I0.0062 J-0.0108
G2 X9.6669 Y50.1981 Z-1.1333 I-0.0125 J0.0
G2 Y50.2198 Z-1.1667 I0.0063 J0.0108
G2 X9.6856 Y50.2089 Z-1.2 I0.0062 J-0.0108
G2 X9.6669 Y50.1981 Z-1.2333 I-0.0125 J0.0
G2 Y50.2198 Z-1.2667 I0.0063 J0.0108
G2 X9.6856 Y50.2089 Z-1.3 I0.0062 J-0.0108
G2 X9.6669 Y50.1981 Z-1.3333 I-0.0125 J0.0
G2 Y50.2198 Z-1.3667 I0.0063 J0.0108
G2 X9.6856 Y50.2089 Z-1.4 I0.0062 J-0.0108
G2 X9.6669 Y50.1981 Z-1.4333 I-0.0125 J0.0
G2 Y50.2198 Z-1.4667 I0.0063 J0.0108
G2 X9.6856 Y50.2089 Z-1.5 I0.0062 J-0.0108
G2 X9.6669 Y50.1981 Z-1.5333 I-0.0125 J0.0
G2 Y50.2198 Z-1.5667 I0.0063 J0.0108
G2 X9.6856 Y50.2089 Z-1.6 I0.0062 J-0.0108
G2 X9.6669 Y50.1981 Z-1.6333 I-0.0125 J0.0
G2 Y50.2198 Z-1.6667 I0.0063 J0.0108
G2 X9.6856 Y50.2089 Z-1.7 I0.0062 J-0.0108
G2 X9.6669 Y50.1981 Z-1.7333 I-0.0125 J0.0
G2 Y50.2198 Z-1.7667 I0.0063 J0.0108
G2 X9.6856 Y50.2089 Z-1.8 I0.0062 J-0.0108
G2 X9.6669 Y50.1981 Z-1.8333 I-0.0125 J0.0
G2 Y50.2198 Z-1.8667 I0.0063 J0.0108
G2 X9.6856 Y50.2089 Z-1.9 I0.0062 J-0.0108
G2 X9.6669 Y50.1981 Z-1.9333 I-0.0125 J0.0
G2 Y50.2198 Z-1.9667 I0.0063 J0.0108
G2 X9.6856 Y50.2089 Z-2.0 I0.0062 J-0.0108
G2 X9.6669 Y50.1981 Z-2.0333 I-0.0125 J0.0
G2 Y50.2198 Z-2.0667 I0.0063 J0.0108
G2 X9.6856 Y50.2089 Z-2.1 I0.0062 J-0.0108
G2 X9.6669 Y50.1981 Z-2.1333 I-0.0125 J0.0
G2 Y50.2198 Z-2.1667 I0.0063 J0.0108
G2 X9.6856 Y50.2089 Z-2.2 I0.0062 J-0.0108
G2 X9.6669 Y50.1981 Z-2.2333 I-0.0125 J0.0
G2 Y50.2198 Z-2.2667 I0.0063 J0.0108
G2 X9.6856 Y50.2089 Z-2.3 I0.0062 J-0.0108
G2 X9.6669 Y50.1981 Z-2.3333 I-0.0125 J0.0
G2 Y50.2198 Z-2.3667 I0.0063 J0.0108
G2 X9.6856 Y50.2089 Z-2.4 I0.0062 J-0.0108
G2 X9.6669 Y50.1981 Z-2.4333 I-0.0125 J0.0
G2 Y50.2198 Z-2.4667 I0.0063 J0.0108
G2 X9.6856 Y50.2089 Z-2.5 I0.0062 J-0.0108
G2 X9.6669 Y50.1981 Z-2.5333 I-0.0125 J0.0
G2 Y50.2198 Z-2.5667 I0.0063 J0.0108
G2 X9.6856 Y50.2089 Z-2.6 I0.0062 J-0.0108
G2 X9.6669 Y50.1981 Z-2.6333 I-0.0125 J0.0
G2 Y50.2198 Z-2.6667 I0.0063 J0.0108
G2 X9.6856 Y50.2089 Z-2.7 I0.0062 J-0.0108
G2 X9.6669 Y50.1981 Z-2.7333 I-0.0125 J0.0
G2 Y50.2198 Z-2.7667 I0.0063 J0.0108
G2 X9.6856 Y50.2089 Z-2.8 I0.0062 J-0.0108
G2 X9.6669 Y50.1981 Z-2.8333 I-0.0125 J0.0
G2 Y50.2198 Z-2.8667 I0.0063 J0.0108
G2 X9.6856 Y50.2089 Z-2.9 I0.0062 J-0.0108
G2 X9.6669 Y50.1981 Z-2.9333 I-0.0125 J0.0
G2 Y50.2198 Z-2.9667 I0.0063 J0.0108
G2 X9.6856 Y50.2089 Z-3.0 I0.0062 J-0.0108
G2 X9.6669 Y50.1981 Z-3.0333 I-0.0125 J0.0
G2 Y50.2198 Z-3.0667 I0.0063 J0.0108
G2 X9.6856 Y50.2089 Z-3.1 I0.0062 J-0.0108
G2 X9.6669 Y50.1981 Z-3.1333 I-0.0125 J0.0
G2 Y50.2198 Z-3.1667 I0.0063 J0.0108
G2 X9.6856 Y50.2089 Z-3.2 I0.0062 J-0.0108
G2 X9.6669 Y50.1981 I-0.0125 J0.0
G2 Y50.2198 I0.0063 J0.0108
G2 X9.6856 Y50.2089 I0.0062 J-0.0108
G0 Z3.0
G0 X17.6554 Y32.5916
G1 F1000.0 Z0.0
G2 F2000.0 X17.6366 Y32.5808 Z-0.0333 I-0.0125 J0.0
G2 Y32.6024 Z-0.0667 I0.0063 J0.0108
G2 X17.6554 Y32.5916 Z-0.1 I0.0062 J-0.0108
G2 X17.6366 Y32.5808 Z-0.1333 I-0.0125 J0.0
G2 Y32.6024 Z-0.1667 I0.0063 J0.0108
G2 X17.6554 Y32.5916 Z-0.2 I0.0062 J-0.0108
G2 X17.6366 Y32.5808 Z-0.2333 I-0.0125 J0.0
G2 Y32.6024 Z-0.2667 I0.0063 J0.0108
G2 X17.6554 Y32.5916 Z-0.3 I0.0062 J-0.0108
G2 X17.6366 Y32.5808 Z-0.3333 I-0.0125 J0.0
G2 Y32.6024 Z-0.3667 I0.0063 J0.0108
G2 X17.6554 Y32.5916 Z-0.4 I0.0062 J-0.0108
G2 X17.6366 Y32.5808 Z-0.4333 I-0.0125 J0.0
G2 Y32.6024 Z-0.4667 I0.0063 J0.0108
G2 X17.6554 Y32.5916 Z-0.5 I0.0062 J-0.0108
G2 X17.6366 Y32.5808 Z-0.5333 I-0.0125 J0.0
G2 Y32.6024 Z-0.5667 I0.0063 J0.0108
G2 X17.6554 Y32.5916 Z-0.6 I0.0062 J-0.0108
G2 X17.6366 Y32.5808 Z-0.6333 I-0.0125 J0.0
G2 Y32.6024 Z-0.6667 I0.0063 J0.0108
G2 X17.6554 Y32.5916 Z-0.7 I0.0062 J-0.0108
G2 X17.6366 Y32.5808 Z-0.7333 I-0.0125 J0.0
G2 Y32.6024 Z-0.7667 I0.0063 J0.0108
G2 X17.6554 Y32.5916 Z-0.8 I0.0062 J-0.0108
G2 X17.6366 Y32.5808 Z-0.8333 I-0.0125 J0.0
G2 Y32.6024 Z-0.8667 I0.0063 J0.0108
G2 X17.6554 Y32.5916 Z-0.9 I0.0062 J-0.0108
G2 X17.6366 Y32.5808 Z-0.9333 I-0.0125 J0.0
G2 Y32.6024 Z-0.9667 I0.0063 J0.0108
G2 X17.6554 Y32.5916 Z-1.0 I0.0062 J-0.0108
G2 X17.6366 Y32.5808 Z-1.0333 I-0.0125 J0.0
G2 Y32.6024 Z-1.0667 I0.0063 J0.0108
G2 X17.6554 Y32.5916 Z-1.1 I0.0062 J-0.0108
G2 X17.6366 Y32.5808 Z-1.1333 I-0.0125 J0.0
G2 Y32.6024 Z-1.1667 I0.0063 J0.0108
G2 X17.6554 Y32.5916 Z-1.2 I0.0062 J-0.0108
G2 X17.6366 Y32.5808 Z-1.2333 I-0.0125 J0.0
G2 Y32.6024 Z-1.2667 I0.0063 J0.0108
G2 X17.6554 Y32.5916 Z-1.3 I0.0062 J-0.0108
G2 X17.6366 Y32.5808 Z-1.3333 I-0.0125 J0.0
G2 Y32.6024 Z-1.3667 I0.0063 J0.0108
G2 X17.6554 Y32.5916 Z-1.4 I0.0062 J-0.0108
G2 X17.6366 Y32.5808 Z-1.4333 I-0.0125 J0.0
G2 Y32.6024 Z-1.4667 I0.0063 J0.0108
G2 X17.6554 Y32.5916 Z-1.5 I0.0062 J-0.0108
G2 X17.6366 Y32.5808 Z-1.5333 I-0.0125 J0.0
G2 Y32.6024 Z-1.5667 I0.0063 J0.0108
G2 X17.6554 Y32.5916 Z-1.6 I0.0062 J-0.0108
G2 X17.6366 Y32.5808 Z-1.6333 I-0.0125 J0.0
G2 Y32.6024 Z-1.6667 I0.0063 J0.0108
G2 X17.6554 Y32.5916 Z-1.7 I0.0062 J-0.0108
G2 X17.6366 Y32.5808 Z-1.7333 I-0.0125 J0.0
G2 Y32.6024 Z-1.7667 I0.0063 J0.0108
G2 X17.6554 Y32.5916 Z-1.8 I0.0062 J-0.0108
G2 X17.6366 Y32.5808 Z-1.8333 I-0.0125 J0.0
G2 Y32.6024 Z-1.8667 I0.0063 J0.0108
G2 X17.6554 Y32.5916 Z-1.9 I0.0062 J-0.0108
G2 X17.6366 Y32.5808 Z-1.9333 I-0.0125 J0.0
G2 Y32.6024 Z-1.9667 I0.0063 J0.0108
G2 X17.6554 Y32.5916 Z-2.0 I0.0062 J-0.0108
G2 X17.6366 Y32.5808 Z-2.0333 I-0.0125 J0.0
G2 Y32.6024 Z-2.0667 I0.0063 J0.0108
G2 X17.6554 Y32.5916 Z-2.1 I0.0062 J-0.0108
G2 X17.6366 Y32.5808 Z-2.1333 I-0.0125 J0.0
G2 Y32.6024 Z-2.1667 I0.0063 J0.0108
G2 X17.6554 Y32.5916 Z-2.2 I0.0062 J-0.0108
G2 X17.6366 Y32.5808 Z-2.2333 I-0.0125 J0.0
G2 Y32.6024 Z-2.2667 I0.0063 J0.0108
G2 X17.6554 Y32.5916 Z-2.3 I0.0062 J-0.0108
G2 X17.6366 Y32.5808 Z-2.3333 I-0.0125 J0.0
G2 Y32.6024 Z-2.3667 I0.0063 J0.0108
G2 X17.6554 Y32.5916 Z-2.4 I0.0062 J-0.0108
G2 X17.6366 Y32.5808 Z-2.4333 I-0.0125 J0.0
G2 Y32.6024 Z-2.4667 I0.0063 J0.0108
G2 X17.6554 Y32.5916 Z-2.5 I0.0062 J-0.0108
G2 X17.6366 Y32.5808 Z-2.5333 I-0.0125 J0.0
G2 Y32.6024 Z-2.5667 I0.0063 J0.0108
G2 X17.6554 Y32.5916 Z-2.6 I0.0062 J-0.0108
G2 X17.6366 Y32.5808 Z-2.6333 I-0.0125 J0.0
G2 Y32.6024 Z-2.6667 I0.0063 J0.0108
G2 X17.6554 Y32.5916 Z-2.7 I0.0062 J-0.0108
G2 X17.6366 Y32.5808 Z-2.7333 I-0.0125 J0.0
G2 Y32.6024 Z-2.7667 I0.0063 J0.0108
G2 X17.6554 Y32.5916 Z-2.8 I0.0062 J-0.0108
G2 X17.6366 Y32.5808 Z-2.8333 I-0.0125 J0.0
G2 Y32.6024 Z-2.8667 I0.0063 J0.0108
G2 X17.6554 Y32.5916 Z-2.9 I0.0062 J-0.0108
G2 X17.6366 Y32.5808 Z-2.9333 I-0.0125 J0.0
G2 Y32.6024 Z-2.9667 I0.0063 J0.0108
G2 X17.6554 Y32.5916 Z-3.0 I0.0062 J-0.0108
G2 X17.6366 Y32.5808 Z-3.0333 I-0.0125 J0.0
G2 Y32.6024 Z-3.0667 I0.0063 J0.0108
G2 X17.6554 Y32.5916 Z-3.1 I0.0062 J-0.0108
G2 X17.6366 Y32.5808 Z-3.1333 I-0.0125 J0.0
G2 Y32.6024 Z-3.1667 I0.0063 J0.0108
G2 X17.6554 Y32.5916 Z-3.2 I0.0062 J-0.0108
G2 X17.6366 Y32.5808 I-0.0125 J0.0
G2 Y32.6024 I0.0063 J0.0108
G2 X17.6554 Y32.5916 I0.0062 J-0.0108
G0 Z3.0
G0 X7.8083 Y3.5208
G1 F1000.0 Z0.0
G2 F2000.0 X7.7896 Y3.51 Z-0.0333 I-0.0125 J0.0
G2 Y3.5316 Z-0.0667 I0.0062 J0.0108
G2 X7.8083 Y3.5208 Z-0.1 I0.0063 J-0.0108
G2 X7.7896 Y3.51 Z-0.1333 I-0.0125 J0.0
G2 Y3.5316 Z-0.1667 I0.0062 J0.0108
G2 X7.8083 Y3.5208 Z-0.2 I0.0063 J-0.0108
G2 X7.7896 Y3.51 Z-0.2333 I-0.0125 J0.0
G2 Y3.5316 Z-0.2667 I0.0062 J0.0108
G2 X7.8083 Y3.5208 Z-0.3 I0.0063 J-0.0108
G2 X7.7896 Y3.51 Z-0.3333 I-0.0125 J0.0
G2 Y3.5316 Z-0.3667 I0.0063 J0.0108
G2 X7.8083 Y3.5208 Z-0.4 I0.0062 J-0.0108
G2 X7.7896 Y3.51 Z-0.4333 I-0.0125 J0.0
G2 Y3.5316 Z-0.4667 I0.0063 J0.0108
G2 X7.8083 Y3.5208 Z-0.5 I0.0062 J-0.0108
G2 X7.7896 Y3.51 Z-0.5333 I-0.0125 J0.0
G2 Y3.5316 Z-0.5667 I0.0063 J0.0108
G2 X7.8083 Y3.5208 Z-0.6 I0.0062 J-0.0108
G2 X7.7896 Y3.51 Z-0.6333 I-0.0125 J0.0
G2 Y3.5316 Z-0.6667 I0.0062 J0.0108
G2 X7.8083 Y3.5208 Z-0.7 I0.0063 J-0.0108
G2 X7.7896 Y3.51 Z-0.7333 I-0.0125 J0.0
G2 Y3.5316 Z-0.7667 I0.0062 J0.0108
G2 X7.8083 Y3.5208 Z-0.8 I0.0063 J-0.0108
G2 X7.7896 Y3.51 Z-0.8333 I-0.0125 J0.0
G2 Y3.5316 Z-0.8667 I0.0062 J0.0108
G2 X7.8083 Y3.5208 Z-0.9 I0.0063 J-0.0108
G2 X7.7896 Y3.51 Z-0.9333 I-0.0125 J0.0
G2 Y3.5316 Z-0.9667 I0.0062 J0.0108
G2 X7.8083 Y3.5208 Z-1.0 I0.0063 J-0.0108
G2 X7.7896 Y3.51 Z-1.0333 I-0.0125 J0.0
G2 Y3.5316 Z-1.0667 I0.0062 J0.0108
G2 X7.8083 Y3.5208 Z-1.1 I0.0063 J-0.0108
G2 X7.7896 Y3.51 Z-1.1333 I-0.0125 J0.0
G2 Y3.5316 Z-1.1667 I0.0062 J0.0108
G2 X7.8083 Y3.5208 Z-1.2 I0.0063 J-0.0108
G2 X7.7896 Y3.51 Z-1.2333 I-0.0125 J0.0
G2 Y3.5316 Z-1.2667 I0.0062 J0.0108
G2 X7.8083 Y3.5208 Z-1.3 I0.0063 J-0.0108
G2 X7.7896 Y3.51 Z-1.3333 I-0.0125 J0.0
G2 Y3.5316 Z-1.3667 I0.0062 J0.0108
G2 X7.8083 Y3.5208 Z-1.4 I0.0063 J-0.0108
G2 X7.7896 Y3.51 Z-1.4333 I-0.0125 J0.0
G2 Y3.5316 Z-1.4667 I0.0062 J0.0108
G2 X7.8083 Y3.5208 Z-1.5 I0.0063 J-0.0108
G2 X7.7896 Y3.51 Z-1.5333 I-0.0125 J0.0
G2 Y3.5316 Z-1.5667 I0.0062 J0.0108
G2 X7.8083 Y3.5208 Z-1.6 I0.0063 J-0.0108
G2 X7.7896 Y3.51 Z-1.6333 I-0.0125 J0.0
G2 Y3.5316 Z-1.6667 I0.0062 J0.0108
G2 X7.8083 Y3.5208 Z-1.7 I0.0063 J-0.0108
G2 X7.7896 Y3.51 Z-1.7333 I-0.0125 J0.0
