(/Applications/pcbgcode.repo/pcb-gcode.ulp)
(Copyright 2005 - 2012 by John Johnson)
(See readme.txt for licensing terms.)
(This file generated from the board:)
(.../atmega_midi_clock/eagle/atmel_midi_clock.brd)
(Current profile is .../pcbgcode.repo/profiles/mach.pp  )
(This file generated 2/9/16 10:17 PM)
(Settings from pcb-machine.h)
(spindle on time = 0.0000)
(spindle speed = 15000.0000)
(milling depth = -0.0700)
(tool change at 0.0000  0.0000  3.0000  )
(feed rate xy = F10    )
(feed rate z  = F5     )
(Z Axis Settings)
(  High     Up        Down     Drill)
(1.0000  	0.0500  	-0.0040 	-0.0730 )
(Settings from pcb-defaults.h)
(isolate min = 0.0010)
(isolate max = 0.0170)
(isolate step = 0.0017)
(Generated bottom outlines, bottom drill, )
(Unit of measure: inch)
(Inch Mode)
G20
(Absolute Coordinates)
G90
S15000
G00 Z1.0000  
G00 X0.0000  Y0.0000  
M03
G04 P0.000000
G00 Z0.0500  
G00 X0.0000  Y0.0500  
G01 Z-0.0700 F5     
G01 X-0.0750 Y-0.0250 F10    
G01 X-3.2000 Y-0.0250 
G01 X-3.3000 Y0.0750  
G01 X-3.3000 Y3.0750  
G01 X-3.2250 Y3.1500  
G01 X-0.0750 Y3.1500  
G01 X0.0000  Y3.0750  
G01 X0.0000  Y0.0500  
G00 Z0.0500  
G00 X-2.8250 Y0.5250  
G01 Z-0.0700 F5     
G01 X-2.8500 Y0.5250  F10    
G01 X-2.8500 Y0.5500  
G01 X-2.8250 Y0.5500  
G01 X-2.8250 Y0.5250  
G00 Z0.0500  
G00 X-3.1250 Y2.9750  
G01 Z-0.0700 F5     
G01 X-3.1500 Y2.9750  F10    
G01 X-3.1500 Y3.0000  
G01 X-3.1250 Y3.0000  
G01 X-3.1250 Y2.9750  
G00 Z0.0500  
G00 X-0.1500 Y3.0000  
G01 Z-0.0700 F5     
G01 X-0.1500 Y3.0250  F10    
G01 X-0.1250 Y3.0250  
G01 X-0.1250 Y3.0000  
G01 X-0.1500 Y3.0000  
G00 Z1.0000  
M05
M02
